Zhangzhongqiu/new-calibration/5kg/20161216_run4_5kg.csv
number, theta_1, theta_2, theta_3, theta_4, theta_5, theta_6, theta_7, tau_1, tau_2, tau_3, tau_4, tau_5, tau_6, tau_7, m_00, m_01, m_02, m_03, m_10, m_11, m_12, m_13, m_20, m_21, m_22, m_23, m_30, m_31, m_32, m_33
0, -1.570805343116235, 0.092445262191838, 0.000050873020604, 0.000053809155276, -0.000072336828829, -0.000039907498717, -0.000047517461496, 0.218440580368042, 12.276360616683959, 0.073951492309570, -5.434994497299194, 0.052822494506836, 1.025452032089234, -0.120150604248047, 0.920374359722359, -0.391038262134381, -0.000339871417766, 3.011832357853488, 0.389393855776190, 0.916582908573164, -0.090819583765343, -91.281563785826833, 0.035825452536004, 0.083455672416447, 0.995867304259011, 1326.085293980814640, 0.000000000000000, 0.000000000000000, 0.000000000000000, 1.000000000000000
1, -1.570803275882821, 0.092447179654185, 0.000055846445385, 0.000052520884123, -0.000072864092795, -0.000039248364217, -0.000047757117019, 0.181473712921143, 12.229311876296997, 0.048420619964600, -5.412544937133790, 0.036535558700562, 1.024450777053833, -0.110972433090210, 0.920382413867665, -0.391019262600999, -0.000385380463266, 2.957147661213336, 0.389370356294082, 0.916590744085351, -0.090841254375326, -91.293093401218229, 0.035873916465171, 0.083458637252438, 0.995865311166834, 1326.080482277191322, 0.000000000000000, 0.000000000000000, 0.000000000000000, 1.000000000000000
2, -1.570792250365241, 0.461957355012723, 0.000071246194397, 0.000050902963909, -0.000073487262604, -0.000005842326040, -0.000047876999321, 0.508126396179199, 61.030953905105591, 0.410694894790649, -26.587322235107422, 0.313853654861450, 5.079199918746948, -0.111639936447144, 0.920299763132344, -0.391210587454238, -0.001619333894240, 0.951956991550605, 0.349000850504205, 0.822860082871107, -0.448441401260740, -444.578192598228156, 0.176767509248426, 0.412135366452656, 0.893810767105120, 1224.963612979559684, 0.000000000000000, 0.000000000000000, 0.000000000000000, 1.000000000000000
3, -1.570792579959762, 0.461979286165580, 0.000071755557831, 0.000037001307349, -0.000073678987022, 0.000001887519042, -0.000048146652691, 0.504765771865845, 60.601466117858891, 0.405852832794189, -26.382194881439208, 0.301088218688965, 4.956212425231934, -0.100793006896973, 0.920343128513543, -0.391106691068521, -0.002020395836619, 1.061906363946143, 0.348741832272044, 0.822967730959090, -0.448445368159360, -444.584381486095879, 0.177052704643114, 0.412019016553216, 0.893807960233673, 1224.942898082609872, 0.000000000000000, 0.000000000000000, 0.000000000000000, 1.000000000000000
4, -1.570788445383852, 0.831638874797887, 0.000087095365692, -0.000083140558695, -0.000073343447474, 0.000187493194595, -0.000047847001475, 0.707075355529785, 101.234102565765369, 0.672606430053711, -43.923664932250972, 0.538789443969727, 8.384009038925171, -0.084439174652100, 0.920868547281729, -0.389863670976396, -0.002727027694433, -0.852810519129222, 0.258950399967572, 0.616846872428722, -0.743266188072307, -736.024523264839672, 0.291454643098840, 0.683744289941578, 0.668990236840879, 1002.735616788878474, 0.000000000000000, 0.000000000000000, 0.000000000000000, 1.000000000000000
5, -1.570788535268308, 0.831642949432646, 0.000087484846822, -0.000082421537585, -0.000073774892865, 0.000187193597921, -0.000048116654844, 0.704386856079102, 101.236791065216067, 0.639592370986938, -43.877885437011713, 0.567841815948486, 8.368155834197999, -0.076929761886597, 0.920889079764326, -0.389817280694639, -0.002406333860973, -0.816925047444374, 0.259155692942437, 0.616807189318483, -0.743227568124702, -736.033694140303396, 0.291207193569010, 0.683806536146643, 0.669034372462874, 1002.753240196092406, 0.000000000000000, 0.000000000000000, 0.000000000000000, 1.000000000000000
6, -1.570801238538171, 1.201246961218396, 0.000099828578860, 0.000013152692145, -0.000073295538186, -0.000011085404190, -0.000047697230409, 0.880483570098877, 127.656675167083733, 0.851322536468506, -55.343448057174683, 0.689333553314209, 10.636332241058350, -0.084772926330566, 0.920166586787379, -0.391479957664614, -0.006074150720723, -2.244201544371754, 0.133076591623752, 0.327309215951784, -0.935499491135529, -926.097991942324938, 0.368217426694978, 0.860007046424586, 0.353275822521424, 690.667107061584375, 0.000000000000000, 0.000000000000000, 0.000000000000000, 1.000000000000000
7, -1.570801837786061, 1.201253522565546, 0.000100158173381, -0.000008149269517, -0.000072480556693, -0.000008059385061, -0.000048026770388, 0.846205202102661, 127.433529712677000, 0.768127107620239, -54.978532657623290, 0.719266300201416, 10.547721170425415, -0.065415328979492, 0.920274748242816, -0.391224335174077, -0.006156891604083, -2.311699603652278, 0.132942063714612, 0.327440846118953, -0.935472554374635, -926.100338288647890, 0.367995645955115, 0.860073259589267, 0.353345712719953, 690.653432247843398, 0.000000000000000, 0.000000000000000, 0.000000000000000, 1.000000000000000
8, -1.385986873887064, 0.092414073267223, 0.000085387615562, 0.000023339251771, -0.000074062523125, -0.000192616499525, -0.000047906888085, -0.035622617721558, 12.492784822463989, 0.060305681228638, -5.508505802154541, 0.072190742492676, 1.135923837661743, -0.045890855789185, 0.833178509410148, -0.552769594059789, 0.016104264654452, 20.066145305968561, 0.551824529928403, 0.829147581796598, -0.089464941570157, -89.844369568426146, 0.036100687339468, 0.083426994934675, 0.995859767683075, 1325.982039766016214, 0.000000000000000, 0.000000000000000, 0.000000000000000, 1.000000000000000
9, -1.385989120943932, 0.092414163151680, 0.000087125308997, 0.000022889829489, -0.000074350153385, -0.000184197576639, -0.000048086656998, -0.014786746978760, 12.529079565048217, 0.052382307052612, -5.483415117263794, 0.055903806686401, 1.089532354354859, -0.063412818908691, 0.833338805785350, -0.552528101625597, 0.016097567712578, 20.102284968579458, 0.551587925847806, 0.829317742794718, -0.089346748932401, -89.823887160973811, 0.036016591054158, 0.083335337041906, 0.995870486945441, 1325.983784574005995, 0.000000000000000, 0.000000000000000, 0.000000000000000, 1.000000000000000
10, -1.385996940618929, 0.461951362861075, 0.000099648809947, 0.000047038095909, -0.000073726896310, -0.000034754305023, -0.000048266480452, 0.450323657989502, 61.078674770355221, 0.417737894058228, -26.620776481628418, 0.318695716857910, 5.135270200729369, -0.091114208221436, 0.841006804995720, -0.534793549667012, 0.081874374412567, 83.073301218226291, 0.511749137147364, 0.737231441372619, -0.441137872416980, -437.337038054516256, 0.175557325622772, 0.412899093104125, 0.893696796645245, 1224.893082087174662, 0.000000000000000, 0.000000000000000, 0.000000000000000, 1.000000000000000
11, -1.385997330154601, 0.461949595224336, 0.000099678807794, 0.000047217864822, -0.000073535171892, -0.000035053847155, -0.000048176595995, 0.402602792739868, 60.994659162521359, 0.359192962646484, -26.613733482360843, 0.355671463012695, 5.144782123565673, -0.074593500137329, 0.840816937005138, -0.535146708766983, 0.081516124424331, 82.977998383394521, 0.511895259332023, 0.737074009619497, -0.441231399400405, -437.336919069763894, 0.176040114515694, 0.412722551406274, 0.893683374379314, 1224.866894885213242, 0.000000000000000, 0.000000000000000, 0.000000000000000, 1.000000000000000
12, -1.385998378770231, 0.831626770721372, 0.000098001000969, 0.000040177097544, -0.000073631077734, -0.000181860580773, -0.000047996772541, 0.696321357727051, 101.394740407943729, 0.680529804229736, -44.022707109451289, 0.542310943603516, 8.547046733856202, -0.079099147796631, 0.857748606220976, -0.496971970654271, 0.131476952010549, 134.671913195336487, 0.422284138498021, 0.535314350232747, -0.731515312763770, -723.899035367962938, 0.293161107411878, 0.682976871364545, 0.669028518287628, 1002.521307605223114, 0.000000000000000, 0.000000000000000, 0.000000000000000, 1.000000000000000
13, -1.385998438656841, 0.831625242740156, 0.000098150772035, 0.000041255656479, -0.000073055904480, -0.000187403310139, -0.000047727173714, 0.669436363220215, 101.345003168106075, 0.719266300201416, -43.993654737472532, 0.530866069793701, 8.508164663314819, -0.064580949783325, 0.857763436193401, -0.496889866525729, 0.131690349204991, 134.622048022549251, 0.422413640923028, 0.535351902952174, -0.731413054277565, -723.897750631427471, 0.292931055867827, 0.683007174595940, 0.669098345505824, 1002.545843876202298, 0.000000000000000, 0.000000000000000, 0.000000000000000, 1.000000000000000
14, -1.385988671576192, 1.201234287891838, 0.000094195965038, -0.000091229941602, -0.000073343447474, -0.000071246248939, -0.000047876944780, 0.815959583282471, 127.717166404724125, 0.857925348281860, -55.312634935379023, 0.689333553314209, 10.654521707534791, -0.074092872619629, 0.879658599495744, -0.445399474761288, 0.166793453755103, 167.899683183813380, 0.300661911515851, 0.249041274025378, -0.920641547398037, -911.282914696480361, 0.368514807432241, 0.859998692856091, 0.352985955795685, 690.403227259529785, 0.000000000000000, 0.000000000000000, 0.000000000000000, 1.000000000000000
15, -1.385987563019411, 1.201260803042887, 0.000098510309861, -0.000093447000623, -0.000072912089350, -0.000070826769962, -0.000048086711539, 0.825369331359863, 127.546446689605716, 0.871130971908569, -55.252329254150396, 0.702539176940918, 10.636665992736816, -0.067751590728760, 0.879946155094369, -0.444957438688400, 0.166456126022728, 167.890885819075010, 0.300271032279250, 0.249396146876952, -0.920673052226948, -911.256971686189786, 0.368146806734202, 0.860124665196149, 0.353063009975022, 690.416052623380438, 0.000000000000000, 0.000000000000000, 0.000000000000000, 1.000000000000000
16, -1.201187429619384, 0.092365207538882, 0.000083110615390, -0.000065703465032, -0.000074014613837, -0.000190848808244, -0.000048176595995, 0.012770372390747, 12.628554044723511, 0.059425306320190, -5.530074987411499, 0.071310367584229, 1.148773277282715, -0.042386463165283, 0.719084242902795, -0.694242120748240, 0.030752713504656, 36.734125196418837, 0.693933538680719, 0.714996435834736, -0.085066683476438, -84.925778388481248, 0.037068794193626, 0.082510450990227, 0.995900562292451, 1325.844383766088640, 0.000000000000000, 0.000000000000000, 0.000000000000000, 1.000000000000000
17, -1.201187489505994, 0.092360264111947, 0.000082930846477, -0.000066422595224, -0.000074062523125, -0.000190609098180, -0.000048236537147, 0.024196495056152, 12.640652292251588, 0.057224369049072, -5.549443235397339, 0.072630929946899, 1.152444545745849, -0.043888345718384, 0.719073660660189, -0.694254974374100, 0.030709951181564, 36.680697827727620, 0.693944138921856, 0.714990433404924, -0.085030654445577, -84.902689179569819, 0.037075633517977, 0.082454294589535, 0.995904958669743, 1325.845250003528918, 0.000000000000000, 0.000000000000000, 0.000000000000000, 1.000000000000000
18, -1.201195369176683, 0.461950913438793, 0.000097192095403, 0.000054977653209, -0.000073774892865, -0.000008688576256, -0.000048446249365, 0.369668674468994, 61.116985887527463, 0.422139768600464, -26.642785854339600, 0.318695716857910, 5.141945234298706, -0.088777946472168, 0.733715538724352, -0.660957224458526, 0.157470808947295, 162.332517713410709, 0.655610684933978, 0.627828796518825, -0.419530251665031, -414.898999057184085, 0.178426842248680, 0.411055409522615, 0.893978362303787, 1224.503911990919505, 0.000000000000000, 0.000000000000000, 0.000000000000000, 1.000000000000000
19, -1.201195998313336, 0.461967811280260, 0.000099049616599, 0.000036132460632, -0.000073822889419, 0.000006231807170, -0.000048446249365, 0.364291675567627, 60.967774168014529, 0.441067829132080, -26.465830497741699, 0.343346214294434, 5.109237569808959, -0.076762886047363, 0.733652349055598, -0.660999762783302, 0.157586624830985, 162.362471268991982, 0.655696304905639, 0.627751604351644, -0.419511953306492, -414.891364958192241, 0.178372045058339, 0.411104897604438, 0.893966541156519, 1224.514458729707030, 0.000000000000000, 0.000000000000000, 0.000000000000000, 1.000000000000000
20, -1.201195728714509, 0.831642050588082, 0.000098240711033, -0.000097222038708, -0.000073439266050, 0.000149443271616, -0.000048116654844, 0.467126779556274, 101.331560670852667, 0.684051303863525, -43.965482740402223, 0.539669818878174, 8.436408052444458, -0.071422859191895, 0.765703896550374, -0.587024479642265, 0.262868414055974, 265.667627255604827, 0.572077729192250, 0.434769900166586, -0.695487027680155, -687.301611863078051, 0.293980636385824, 0.682918292484441, 0.668728637954381, 1002.127360185604971, 0.000000000000000, 0.000000000000000, 0.000000000000000, 1.000000000000000
21, -1.201195249294380, 0.831645166491667, 0.000098270654338, -0.000097222038708, -0.000073487262604, 0.000149053790485, -0.000048146598149, 0.527618017196655, 101.286528305053707, 0.613181123733521, -43.935549993515011, 0.533947381973267, 8.434238666534423, -0.077597265243530, 0.765628247612940, -0.587127710497912, 0.262858208969434, 265.700508814884245, 0.572124488303394, 0.434686766930495, -0.695500528065287, -687.287012079859664, 0.294086647674997, 0.682882468819485, 0.668718608562890, 1002.117236007064889, 0.000000000000000, 0.000000000000000, 0.000000000000000, 1.000000000000000
22, -1.201205046427418, 1.201246691619569, 0.000094795267469, 0.000000719075651, -0.000073199632344, -0.000024807346378, -0.000048206539300, 0.714468729019165, 127.712461530685431, 0.863647785186768, -55.354012556076043, 0.688012990951538, 10.657024845123292, -0.068419094085693, 0.808814518629835, -0.484209558121509, 0.333706724950759, 332.537023176119988, 0.457888101156091, 0.162481233827097, -0.874035660298648, -865.378244350647378, 0.368995340449251, 0.859733070480482, 0.353130976054133, 690.123175764547341, 0.000000000000000, 0.000000000000000, 0.000000000000000, 1.000000000000000
23, -1.201205435908548, 1.201253942044523, 0.000098959786684, -0.000019654098143, -0.000073343447474, -0.000024357924096, -0.000048356364908, 0.678846111297607, 127.379759723663341, 0.893140344619751, -55.271257314682003, 0.722347612380981, 10.613970878601075, -0.063579694747925, 0.808676858340707, -0.484448491163647, 0.333693569301943, 332.476253752845992, 0.457924821414324, 0.162352831464161, -0.874040282852129, -865.407176466787746, 0.369251400426408, 0.859622718129783, 0.353131966491708, 690.099940891654342, 0.000000000000000, 0.000000000000000, 0.000000000000000, 1.000000000000000
24, -1.016390621889701, 0.092350017556628, 0.000083110615390, -0.000098300652185, -0.000074014526571, -0.000191897423874, -0.000048176595995, 0.022852245330811, 12.716602401733399, 0.057224369049072, -5.555165672302246, 0.066908493041992, 1.172135894775391, -0.030371402740479, 0.578357577884368, -0.814450109557203, 0.046621144837806, 52.085493822022819, 0.814949650189526, 0.574239171023546, -0.078143727311662, -77.246164543237754, 0.036872479706361, 0.083188902531834, 0.995851407959969, 1325.839557173457479, 0.000000000000000, 0.000000000000000, 0.000000000000000, 1.000000000000000
25, -1.016407190027564, 0.092352474325714, 0.000093776540603, -0.000099948461163, -0.000074206338255, -0.000184886654443, -0.000048416306060, 0.040327491760254, 12.660816038131713, 0.070870180130005, -5.578495607376098, 0.069109430313110, 1.151610166549683, -0.046892110824585, 0.578452319204396, -0.814381628294381, 0.046642018648934, 52.093661723352561, 0.814882287951712, 0.574330713888940, -0.078173447323272, -77.256949772452089, 0.036875075452648, 0.083227366775679, 0.995848097969740, 1325.838902990851921, 0.000000000000000, 0.000000000000000, 0.000000000000000, 1.000000000000000
26, -1.016393078604245, 0.461955317668073, 0.000097611465297, 0.000052580770733, -0.000073726983577, 0.000042064616587, -0.000048356310367, 0.280948192596436, 61.142526632308957, 0.426541643142700, -26.636183042526245, 0.319576091766357, 5.161970335006714, -0.080434154510498, 0.601037050798097, -0.764284683844237, 0.233716464137727, 236.286736235884774, 0.779357587622298, 0.495687469061635, -0.383269726995002, -378.487536989131684, 0.177076859536978, 0.412508006051260, 0.893577601979893, 1224.468455374277482, 0.000000000000000, 0.000000000000000, 0.000000000000000, 1.000000000000000
27, -1.016397722489047, 0.461974162915191, 0.000099019673294, 0.000034424655961, -0.000073822802152, 0.000056116098754, -0.000048476192670, 0.311865936279297, 60.847463817596434, 0.384723834991455, -26.664355039596558, 0.283040533065796, 5.217539989471435, -0.074092872619629, 0.601160958352132, -0.764184464792894, 0.233725492666815, 236.150143104535772, 0.779279814117973, 0.495815362353845, -0.383262439800957, -378.505398822951236, 0.176998512596585, 0.412539974091147, 0.893578366073996, 1224.488195816978759, 0.000000000000000, 0.000000000000000, 0.000000000000000, 1.000000000000000
28, -1.016397003467937, 0.831647922857427, 0.000096173423078, -0.000067051731877, -0.000073439353316, 0.000163464810478, -0.000048296423757, 0.487290525436401, 101.386674909591676, 0.681850366592407, -44.025348234176633, 0.540550193786621, 8.442415582656860, -0.076429134368896, 0.647445386958698, -0.656608836576885, 0.386884099744423, 387.473434116098758, 0.703276559491212, 0.319166178577089, -0.635244072245229, -627.295351452945283, 0.293626551551638, 0.683372362758144, 0.668420273512291, 1001.971202994757846, 0.000000000000000, 0.000000000000000, 0.000000000000000, 1.000000000000000
29, -1.016397183236850, 0.831647593317448, 0.000096143479773, -0.000066542368444, -0.000073631077734, 0.000163255098260, -0.000048446194823, 0.468471029281616, 101.377265161514288, 0.695055990219116, -43.993214550018308, 0.502253885269165, 8.443083086013793, -0.081769161224365, 0.647571303382636, -0.656556302742541, 0.386762496067496, 387.303617254708001, 0.703161256474641, 0.319292827417236, -0.635308065235214, -627.317214207401435, 0.293625023505011, 0.683363674545957, 0.668429827194096, 1001.991309645521028, 0.000000000000000, 0.000000000000000, 0.000000000000000, 1.000000000000000
30, -1.016399070701351, 1.201246961218396, 0.000095873771863, -0.000012823097624, -0.000073343447474, -0.000022290636141, -0.000048116654844, 0.592814128875732, 127.729264652252198, 0.865408535003662, -55.352251806259154, 0.688893365859985, 10.657692348480225, -0.078097892761230, 0.712988034584883, -0.504836676941286, 0.486608664281335, 485.632214455059454, 0.596718419259139, 0.072434750816928, -0.799174783755696, -789.600500923852337, 0.368205364783920, 0.860170411307532, 0.352890454469048, 690.181083050751454, 0.000000000000000, 0.000000000000000, 0.000000000000000, 1.000000000000000
31, -1.016399310411415, 1.201246991161701, 0.000095843828558, -0.000012523500950, -0.000073199632344, -0.000022230694990, -0.000048236537147, 0.612305749893189, 127.715150030136101, 0.861006660461426, -55.354452743530274, 0.684931678771973, 10.657358596801759, -0.077597265243530, 0.713120962840486, -0.504781816729724, 0.486470769786323, 485.657875931161755, 0.596577766573405, 0.072526169782258, -0.799271495254900, -789.590042844866389, 0.368175855791422, 0.860194903609499, 0.352861540857740, 690.176960738988214, 0.000000000000000, 0.000000000000000, 0.000000000000000, 1.000000000000000
32, -0.831588151548350, 0.092350496976756, 0.000040267036542, 0.000079305579458, -0.000073918707995, -0.000193695058460, -0.000048356310367, 0.056458488464355, 12.798601634979249, 0.054143056869507, -5.670934972763062, 0.062946805953980, 1.164459606170654, -0.041552083969116, 0.420921570409656, -0.905136182128030, 0.059611436541686, 64.972330780598355, 0.906444160710797, 0.417216497120822, -0.065493343505500, -66.749711139158705, 0.034409520153105, 0.081601999564507, 0.996070830106929, 1325.913117271655437, 0.000000000000000, 0.000000000000000, 0.000000000000000, 1.000000000000000
33, -0.831588211489501, 0.092350317153302, 0.000040027326478, 0.000079365520610, -0.000073870798707, -0.000193575176158, -0.000048356310367, 0.073261610031128, 12.803306509017943, 0.048420619964600, -5.652887287139892, 0.058104743957520, 1.164960233688354, -0.042219587326050, 0.420819214509560, -0.905180092383482, 0.059667319800602, 64.991646929366865, 0.906491721329951, 0.417110868369036, -0.065507882340158, -66.745773190942600, 0.034408543413228, 0.081654907023763, 0.996066528048765, 1325.920931066026469, 0.000000000000000, 0.000000000000000, 0.000000000000000, 1.000000000000000
34, -0.831590578374131, 0.461951482743378, 0.000094375788492, 0.000053090134167, -0.000073870798707, 0.000007699847236, -0.000048356310367, 0.343455804824829, 61.187558998107910, 0.417737894058228, -26.660833539962766, 0.319135904312134, 5.155795928955078, -0.086441684722900, 0.448078107058968, -0.841880965532041, 0.300769762192430, 301.702523956453490, 0.876321605972733, 0.347052439967324, -0.334088381746654, -328.982006431746981, 0.176879769560635, 0.413268730715942, 0.893265080103667, 1224.444282100617329, 0.000000000000000, 0.000000000000000, 0.000000000000000, 1.000000000000000
35, -0.831590518487521, 0.461969548973694, 0.000095124807448, 0.000034993960546, -0.000073870798707, 0.000022740058423, -0.000048596020431, 0.358914676666260, 60.962397169113160, 0.390006084442139, -26.711014909744264, 0.292284469604492, 5.205691804885864, -0.073258493423462, 0.447986365687502, -0.842052559046913, 0.300425870990915, 301.822649403762853, 0.876324403056526, 0.347011686039643, -0.334123375954971, -329.032022959489098, 0.177098155737792, 0.412953238944156, 0.893367710228998, 1224.381435895066488, 0.000000000000000, 0.000000000000000, 0.000000000000000, 1.000000000000000
36, -0.831597708971323, 0.831647862970817, 0.000098510309861, -0.000075290885851, -0.000073583168446, 0.000152439347440, -0.000048356310367, 0.547781763076782, 101.451198896408073, 0.683611116409302, -44.038113670349119, 0.538349256515503, 8.447588733673095, -0.075761631011963, 0.508334037296481, -0.703279862070693, 0.496984851008245, 496.747945421590657, 0.809748272099969, 0.193936305351072, -0.553801810486289, -545.652170535189498, 0.293094255073305, 0.683948934550383, 0.668064078191921, 1001.650328305733865, 0.000000000000000, 0.000000000000000, 0.000000000000000, 1.000000000000000
37, -0.831598218334756, 0.831648102680881, 0.000098660080927, -0.000074991289177, -0.000073151723056, 0.000152079809614, -0.000048086711539, 0.541060514450073, 101.503624635696411, 0.739955110549927, -44.038553857803343, 0.522942695617676, 8.435239921569824, -0.060909681320190, 0.508315658586091, -0.703367806293989, 0.496879180792847, 496.745071065996456, 0.809739765160373, 0.193966678406663, -0.553803611748704, -545.616291937797314, 0.293149627245562, 0.683849878801677, 0.668141182167901, 1001.647617128544198, 0.000000000000000, 0.000000000000000, 0.000000000000000, 1.000000000000000
38, -0.831592346065412, 1.201242017736921, 0.000095783941948, 0.000005872269345, -0.000073151635789, -0.000027264115463, -0.000048236537147, 0.604912376403809, 127.763543020248420, 0.858365535736084, -55.389667739868166, 0.691094303131103, 10.655356086730958, -0.069587224960327, 0.591456591596863, -0.508250818450358, 0.625987384698097, 623.233872349545209, 0.717778739697169, -0.021854008233709, -0.695928216961250, -687.346956720181311, 0.367386419312644, 0.860931767254910, 0.351885934694713, 689.521435970204152, 0.000000000000000, 0.000000000000000, 0.000000000000000, 1.000000000000000
39, -0.831591956529740, 1.201260593330670, 0.000097761345446, -0.000015100152339, -0.000072816183508, -0.000026754806572, -0.000048326367062, 0.606928750991821, 127.300448989868158, 0.919551591873169, -55.120713205337523, 0.661601743698120, 10.510007230758667, -0.079599775314331, 0.591376343813602, -0.508280562724576, 0.626039047930754, 623.253150271252252, 0.717839168229656, -0.021888378855313, -0.695864805423038, -687.281229351695060, 0.367397534739977, 0.860913333865538, 0.351919426914048, 689.547648005283691, 0.000000000000000, 0.000000000000000, 0.000000000000000, 1.000000000000000
40, -0.646788797165125, 0.092353552939190, 0.000078047251611, 0.000035173729458, -0.000073918707995, -0.000193005926114, -0.000048416251518, 0.059819112777710, 12.866486246109009, 0.050621557235718, -5.695585470199584, 0.062506618499756, 1.177475921630859, -0.024530748367310, 0.246241987614081, -0.966542260675380, 0.071839695603424, 77.215063842966089, 0.968598385270786, 0.242780718030308, -0.053616144989312, -54.139242918335434, 0.034380977104990, 0.082786359270194, 0.995974079548305, 1325.927402080895718, 0.000000000000000, 0.000000000000000, 0.000000000000000, 1.000000000000000
41, -0.646795448451273, 0.092356998382754, 0.000085297731106, 0.000034514594959, -0.000074206338255, -0.000185455904487, -0.000048596020431, 0.065196111679077, 12.838257001876832, 0.051501932144165, -5.677537784576415, 0.077032804489136, 1.149607656478882, -0.037213312149048, 0.246169951555539, -0.966558830194958, 0.071863639786036, 77.212776676901981, 0.968616230057567, 0.242706606392173, -0.053629302462939, -54.154729349293305, 0.034394095717292, 0.082810210637025, 0.995971643770063, 1325.930466377001721, 0.000000000000000, 0.000000000000000, 0.000000000000000, 1.000000000000000
42, -0.646803567722944, 0.462023867437862, 0.000096922442034, 0.000055966382229, -0.000073679074289, -0.000037151078416, -0.000048655961582, 0.329341182708740, 61.219820991516116, 0.418178081512451, -26.689005537033083, 0.314293842315674, 5.169479747772217, -0.080100402832031, 0.279006589129851, -0.891801770063065, 0.356152953286240, 356.965734951338845, 0.944227395280228, 0.187224664102720, -0.270890293576458, -268.592706372117959, 0.174899826256181, 0.411869552241979, 0.894300577385227, 1224.387323936663506, 0.000000000000000, 0.000000000000000, 0.000000000000000, 1.000000000000000
43, -0.646803657552859, 0.462023987320165, 0.000096862500883, 0.000055756615470, -0.000073583168446, -0.000037270906177, -0.000048655961582, 0.323292058944702, 61.348196840286249, 0.419498643875122, -26.767358903884887, 0.312973279953003, 5.177656663894654, -0.080100402832031, 0.278896167812040, -0.891870529693590, 0.356067249046909, 356.870391161462805, 0.944252657968064, 0.187138698909696, -0.270861634955255, -268.580052457817771, 0.174939548130222, 0.411759718324244, 0.894343384201803, 1224.398510405773322, 0.000000000000000, 0.000000000000000, 0.000000000000000, 1.000000000000000
44, -0.646792841856579, 0.831617003586182, 0.000097821232056, 0.000035293557220, -0.000073535259159, 0.000069808152178, -0.000048476192670, 0.433520536422729, 101.677704975128165, 0.680089616775513, -44.177653093338009, 0.541870756149292, 8.462941310882568, -0.081435409545898, 0.349826508213576, -0.726937833443421, 0.590916915022478, 588.807260484507083, 0.889755301681678, 0.060412402739592, -0.452422197426889, -445.632299653499501, 0.293184101343239, 0.684040735558793, 0.667930651202460, 1001.430434692599761, 0.000000000000000, 0.000000000000000, 0.000000000000000, 1.000000000000000
45, -0.646792811913274, 0.831615865086095, 0.000097821232056, 0.000035533267284, -0.000073679074289, 0.000069718267722, -0.000048446249365, 0.560552135467529, 101.580918994903556, 0.746117734909058, -44.148160533905028, 0.499612760543823, 8.463608814239501, -0.081769161224365, 0.349793099631663, -0.726972491467932, 0.590894054885460, 588.786802455470593, 0.889762113912623, 0.060395155731053, -0.452411102659916, -445.630471239362748, 0.293203288003073, 0.684005425280479, 0.667958389490736, 1001.428692663917332, 0.000000000000000, 0.000000000000000, 0.000000000000000, 1.000000000000000
46, -0.646792212665385, 1.201246451964046, 0.000093956309515, 0.000013242576601, -0.000073199632344, -0.000042184498889, -0.000048356364908, 0.555847261428833, 127.794460763931284, 0.871130971908569, -55.412117300033572, 0.696816740036011, 10.650182935714721, -0.064247198104858, 0.449788238617703, -0.495083510668502, 0.743359171508185, 739.198948575454892, 0.814161016656372, -0.114904683050055, -0.569156176080195, -561.471305794355203, 0.367195287766942, 0.861213812753440, 0.351394919377663, 689.114834238660592, 0.000000000000000, 0.000000000000000, 0.000000000000000, 1.000000000000000
47, -0.646792212665385, 1.201246451909505, 0.000093836427212, 0.000013721942188, -0.000073247541632, -0.000042663809935, -0.000048386308213, 0.551814512252808, 127.699019033431995, 0.776930856704712, -55.369859304428104, 0.677008304595947, 10.659527982711792, -0.069754100799561, 0.449866434965802, -0.495134556677905, 0.743277849444294, 739.127689124474159, 0.814101174194331, -0.114865507084514, -0.569249675852019, -561.512040154557894, 0.367232172973136, 0.861189692266223, 0.351415487803023, 689.142929596213662, 0.000000000000000, 0.000000000000000, 0.000000000000000, 1.000000000000000
48, -0.461989113241922, 0.092350077443238, 0.000082181827521, 0.000079814888350, -0.000073966617283, -0.000194174369506, -0.000048566077126, 0.078638608932495, 13.000911218643189, 0.054143056869507, -5.751049089431763, 0.071310367584229, 1.173304025650024, -0.021360107421875, 0.068422995510072, -0.994435057641852, 0.080107489152239, 86.545087330976614, 0.997041794552511, 0.065342001460862, -0.040473235114047, -39.197073009652371, 0.035013620220378, 0.082639814725930, 0.995964209909737, 1325.893949966760374, 0.000000000000000, 0.000000000000000, 0.000000000000000, 1.000000000000000
49, -0.461989113241922, 0.092349987613323, 0.000082121886369, 0.000080474077391, -0.000074158428967, -0.000193904770678, -0.000048596074972, 0.136441347122192, 13.019058589935302, 0.058985118865967, -5.814436082839966, 0.102123489379883, 1.186654092788696, -0.034710174560547, 0.068623451084793, -0.994424213933048, 0.080070623232578, 86.504818109660874, 0.997028922404759, 0.065545237634229, -0.040461706734603, -39.197472925017685, 0.034987852886647, 0.082609349150764, 0.995967642839500, 1325.892804225571808, 0.000000000000000, 0.000000000000000, 0.000000000000000, 1.000000000000000
50, -0.462002595474046, 0.461954328993594, 0.000098150772035, 0.000062407847075, -0.000073870798707, -0.000015040156646, -0.000048655961582, 0.301784063339233, 61.415409326553345, 0.419058456420898, -26.786286964416504, 0.317815341949463, 5.177489788055420, -0.070755355834961, 0.100949476929640, -0.910829509895506, 0.400248431616097, 401.273550811403368, 0.979358821410778, 0.020165578709280, -0.201120979413419, -198.802603695932419, 0.175115681857808, 0.412289889930414, 0.894064619940104, 1224.082007725232188, 0.000000000000000, 0.000000000000000, 0.000000000000000, 1.000000000000000
51, -0.462003074839633, 0.461972395223910, 0.000098839904381, 0.000043982133475, -0.000073918707995, -0.000000539252197, -0.000048745846039, 0.297079189300537, 61.207722743988043, 0.389125709533691, -26.787607526779176, 0.303729343414307, 5.209863700866699, -0.067417839050293, 0.100954890716540, -0.910854271788717, 0.400190711542206, 401.225250414026448, 0.979356226421925, 0.020178318392954, -0.201132337617398, -198.839336768126742, 0.175127073318256, 0.412234558268807, 0.894087902367493, 1224.084995893244468, 0.000000000000000, 0.000000000000000, 0.000000000000000, 1.000000000000000
52, -0.462001157322744, 0.831647922911968, 0.000096832503036, -0.000044641267975, -0.000073439266050, 0.000108067732834, -0.000048536133821, 0.447635158538818, 101.629984109878535, 0.680969991683960, -44.123510036468502, 0.545832443237305, 8.459603794097900, -0.069420349121094, 0.180138365942528, -0.726843910247588, 0.662757949217927, 661.161322692016938, 0.938589873366343, -0.074562362140389, -0.336882032418170, -330.174613225350697, 0.294277451955986, 0.682743278464199, 0.668776791599597, 1000.828384134978592, 0.000000000000000, 0.000000000000000, 0.000000000000000, 1.000000000000000
53, -0.462001906341700, 0.831654544200269, 0.000097881173208, -0.000063186809336, -0.000073487262604, 0.000108547098421, -0.000048626018277, 0.426799287796020, 101.391379783630370, 0.729830799102783, -44.027549171447752, 0.514138946533203, 8.329774391174317, -0.070087852478027, 0.180247575620617, -0.726996238640918, 0.662561152260565, 661.133105847819820, 0.938551237390872, -0.074445717043480, -0.337015444758760, -330.158093874408962, 0.294333800768707, 0.682593806165746, 0.668904559342517, 1000.823292792846246, 0.000000000000000, 0.000000000000000, 0.000000000000000, 1.000000000000000
54, -0.461999599398222, 1.201246212199440, 0.000095334465124, 0.000017796576947, -0.000073439353316, -0.000035742979502, -0.000048326421603, 0.506782146453857, 127.850919252395627, 0.865408535003662, -55.448212671279904, 0.695496177673340, 10.663699878692626, -0.062244688034058, 0.293181600046205, -0.466472450570078, 0.834534602190642, 829.818789858417290, 0.882416969715723, -0.203911263055886, -0.423981707573187, -416.328499444731278, 0.367946790925086, 0.860711130204611, 0.351840175917748, 688.772535906776056, 0.000000000000000, 0.000000000000000, 0.000000000000000, 1.000000000000000
55, -0.461999809110440, 1.201254241695738, 0.000095903715167, -0.000003115903585, -0.000072432647405, -0.000032417363699, -0.000048745846039, 0.483929901123047, 127.627773797988880, 0.897542219161987, -55.009345779418943, 0.615822248458862, 10.622648422241211, -0.071756610870361, 0.293278187907224, -0.466233272558294, 0.834634315168888, 829.953703984805429, 0.882425638897900, -0.203897680040855, -0.423970196935576, -416.316443755251271, 0.367849012929882, 0.860843929892952, 0.351617451291842, 688.691390392496601, 0.000000000000000, 0.000000000000000, 0.000000000000000, 1.000000000000000
56, -0.277189579035243, 0.092391303210954, 0.000038109809589, -0.000062347960465, -0.000074014526571, -0.000190998579311, -0.000048626018277, 0.054442113876343, 13.033173212051391, 0.061186056137085, -5.751489276885986, 0.067348680496216, 1.214856109619141, -0.025532003402710, -0.115498617264409, -0.989331046840361, 0.088792731503009, 92.618317173010198, 0.992614025711631, -0.118295932017934, -0.026897368431852, -23.077426079922009, 0.037114220597501, 0.085030301809203, 0.995686889741788, 1326.064222793472481, 0.000000000000000, 0.000000000000000, 0.000000000000000, 1.000000000000000
57, -0.277190028457525, 0.092391003614280, 0.000038079866284, -0.000062917210509, -0.000073679074289, -0.000190579154875, -0.000048655961582, 0.058474863052368, 12.981419597625733, 0.062946805953979, -5.771297712326049, 0.103884239196777, 1.206679193496704, -0.021693859100342, -0.115382335458402, -0.989358484355899, 0.088638062350001, 92.649453911822974, 0.992631469295611, -0.118166933991649, -0.026820549491949, -23.051551807794297, 0.037009226257808, 0.084890312427339, 0.995702742804190, 1326.054523815129642, 0.000000000000000, 0.000000000000000, 0.000000000000000, 1.000000000000000
58, -0.277205248437625, 0.461980424611125, 0.000094645441861, 0.000059172115729, -0.000073583168446, 0.000032836788134, -0.000048655961582, 0.293718564987183, 61.564621046066279, 0.419498643875122, -26.834707584381103, 0.313413467407227, 5.183831069946288, -0.075427879333496, -0.081122014085816, -0.899152788321225, 0.430050557591579, 430.811643929801505, 0.980944918508189, -0.148449118794461, -0.125339243583607, -121.846936482051603, 0.176539756665810, 0.411688137287578, 0.894061850172046, 1223.907376285950932, 0.000000000000000, 0.000000000000000, 0.000000000000000, 1.000000000000000
59, -0.277203870227475, 0.461998460898136, 0.000095094809602, 0.000041225713174, -0.000073726983577, 0.000050723249537, -0.000048685959429, 0.286997316360474, 61.364999961853030, 0.388245334625244, -26.875645017623903, 0.300207843780518, 5.203522418975830, -0.067918466567993, -0.081203296308081, -0.899187530406810, 0.429962567940052, 430.879889728752630, 0.980936648200043, -0.148513515608051, -0.125327682096981, -121.839813378018960, 0.176548341501037, 0.411589019341672, 0.894105789194206, 1223.889159777769464, 0.000000000000000, 0.000000000000000, 0.000000000000000, 1.000000000000000
60, -0.277206147282189, 0.831647862970817, 0.000097851229903, -0.000099768692250, -0.000073487262604, 0.000078946041633, -0.000048596074972, 0.431504161834717, 101.689131097793577, 0.686692428588867, -44.113825912475583, 0.537909069061279, 8.472453233718872, -0.075594755172729, 0.005600481090637, -0.698881504173677, 0.715215546346339, 710.890509774714360, 0.956025084786579, -0.205988187080103, -0.208769978785903, -203.431477754929460, 0.293231430563586, 0.684933215654922, 0.666994616336774, 1000.828207893688727, 0.000000000000000, 0.000000000000000, 0.000000000000000, 1.000000000000000
61, -0.277202222363955, 0.831654424317966, 0.000098510364402, -0.000101416501228, -0.000073295450920, 0.000080144482871, -0.000048715902734, 0.398570043563843, 101.640738107681273, 0.693295240402222, -44.094017477035521, 0.540110006332397, 8.454597518920899, -0.065749080657959, 0.005594111118843, -0.699024324428086, 0.715076009791021, 710.798295534124236, 0.956023538611261, -0.205954444761795, -0.208810345299421, -203.425627213813812, 0.293236593115513, 0.684797605530802, 0.667131576165668, 1000.859268567547247, 0.000000000000000, 0.000000000000000, 0.000000000000000, 1.000000000000000
62, -0.277205937515430, 1.201247111044004, 0.000095544231884, -0.000075230999241, -0.000073343447474, -0.000044701154585, -0.000048506190516, 0.407307666778564, 127.893263118743903, 0.867169284820557, -55.414758424758908, 0.700338239669800, 10.703916955947875, -0.062912191390991, 0.125667756231140, -0.420060348757118, 0.898752979658971, 892.559221423467761, 0.921334503467801, -0.286540864826370, -0.262749054240539, -257.049833398958697, 0.367899915416642, 0.861071214352567, 0.351007145297390, 688.430532661192842, 0.000000000000000, 0.000000000000000, 0.000000000000000, 1.000000000000000
63, -0.277205877574278, 1.201247111044004, 0.000095724000796, -0.000075051175787, -0.000073151635789, -0.000045300347933, -0.000048416251518, 0.259440196990967, 127.785723140716556, 0.821829977035522, -55.419160299301147, 0.735993423461914, 10.688230627059937, -0.049061496734619, 0.125707935475100, -0.419988295554329, 0.898781033709523, 892.571037450834183, 0.921331106966027, -0.286542386082527, -0.262759304906387, -257.070645144734669, 0.367894694573520, 0.861105854454319, 0.350927629475301, 688.384623488027728, 0.000000000000000, 0.000000000000000, 0.000000000000000, 1.000000000000000
64, -0.092389895112040, 0.092497303655833, 0.000079185751697, 0.000024417810706, -0.000074110519679, -0.000190129732593, -0.000048655961582, 0.022180120468140, 13.478791996002197, 0.054143056869507, -6.008998937606812, 0.062066431045532, 1.225035535812378, -0.023529493331909, -0.297647133299537, -0.950279641386526, 0.091513863457201, 95.706763467554509, 0.953968271855429, -0.299747098619350, -0.009808830839998, -6.205875738628966, 0.036752147307798, 0.084381751792534, 0.995755491891804, 1325.842964237827800, 0.000000000000000, 0.000000000000000, 0.000000000000000, 1.000000000000000
65, -0.092390044883106, 0.092417848305308, 0.000078796270567, 0.000025586308639, -0.000074398062673, -0.000189860079224, -0.000048745846039, 0.016130996704102, 13.261695665359497, 0.025971059799194, -5.872540826797485, 0.061186056137085, 1.217359247207642, -0.033375167846680, -0.298051539373331, -0.950179406974098, 0.091238009839869, 95.816539915785356, 0.953845283556754, -0.300139524198759, -0.009769393547122, -6.229615822158584, 0.036666809429281, 0.084115162581401, 0.995781193089216, 1325.805929723520421, 0.000000000000000, 0.000000000000000, 0.000000000000000, 1.000000000000000
66, -0.092392381824430, 0.462048315246414, 0.000098060942120, -0.000093716653993, -0.000073918707995, -0.000070347404375, -0.000048775843885, 0.173408214569092, 61.693669019699101, 0.429622955322266, -26.843071146011354, 0.320456466674805, 5.213034341812135, -0.072757865905762, -0.257132469902776, -0.855880512137776, 0.448722009561015, 446.984354781841773, 0.949957586517202, -0.309091939977505, -0.045196863379619, -40.866879509514646, 0.177379471022188, 0.414645296107071, 0.892527759610965, 1223.776899901782372, 0.000000000000000, 0.000000000000000, 0.000000000000000, 1.000000000000000
67, -0.092392501597650, 0.462050472418826, 0.000098630192164, -0.000099439097730, -0.000073870798707, -0.000056984945471, -0.000048865673800, 0.193571960449219, 61.660734901428221, 0.414216394424438, -26.812698211669922, 0.322217216491699, 5.199851150512695, -0.063913446426392, -0.256955032544082, -0.855939103935718, 0.448711891533966, 446.977018445117039, 0.950005099214366, -0.308933148986869, -0.045283782127381, -40.935176020620951, 0.177382137536373, 0.414642689325131, 0.892528440707774, 1223.782185824195494, 0.000000000000000, 0.000000000000000, 0.000000000000000, 1.000000000000000
68, -0.092398463751451, 0.831606816972014, 0.000096742673121, 0.000031608403591, -0.000073535259159, 0.000111453289788, -0.000048596074972, 0.215752080917358, 101.784572828292852, 0.685371866226196, -44.196140966415399, 0.538349256515503, 8.475790750503540, -0.072424114227295, -0.171689146028788, -0.649458636398995, 0.740760633904545, 735.628203852119782, 0.940541461153771, -0.331767781625176, -0.072882775236951, -69.856696156421080, 0.293094860048135, 0.684202907537134, 0.667803701944738, 1000.978543367293582, 0.000000000000000, 0.000000000000000, 0.000000000000000, 1.000000000000000
69, -0.092398493749298, 0.831628388587046, 0.000098030998816, 0.000013152692145, -0.000073103813768, 0.000112921329853, -0.000048715848192, 0.217096330642700, 101.246872938156130, 0.684051303863525, -43.773120822906492, 0.559038066864014, 8.405702898025513, -0.060909681320190, -0.171599394941306, -0.649460822714199, 0.740779513360874, 735.719026600341408, 0.940553963449196, -0.331717758043379, -0.072949097586488, -69.855886777416998, 0.293107300311314, 0.684225086326181, 0.667775517480346, 1000.920563520684937, 0.000000000000000, 0.000000000000000, 0.000000000000000, 1.000000000000000
70, -0.092403766825294, 1.201247051157394, 0.000096502963057, -0.000098270654338, -0.000073151635789, -0.000076639152697, -0.000048476192670, 0.316570810317993, 127.931574235916145, 0.869810409545898, -55.427964048385618, 0.690654115676880, 10.675548063278198, -0.066416584014893, -0.046809985016256, -0.361078944073474, 0.931359662777792, 924.883232452661900, 0.928447039867099, -0.359690258035215, -0.092784764032584, -89.234999628067683, 0.368503622051126, 0.860374868543559, 0.352079772372476, 687.835337770904516, 0.000000000000000, 0.000000000000000, 0.000000000000000, 1.000000000000000
71, -0.092403706938684, 1.201255140485761, 0.000098390482099, -0.000100637538967, -0.000072720277665, -0.000076039904807, -0.000048566077126, 0.303800437927246, 127.835460380554196, 0.887417907714844, -55.352251806259154, 0.696376552581787, 10.660195486068726, -0.064080322265625, -0.046983014174723, -0.360944509042933, 0.931403058708105, 924.917642137010944, 0.928453791435322, -0.359728072231442, -0.092570358204050, -89.272351478030942, 0.368464589273425, 0.860415466760336, 0.352021407035367, 687.791561117375068, 0.000000000000000, 0.000000000000000, 0.000000000000000, 1.000000000000000
72, 0.092409579153487, 0.092444633000643, 0.000083230388609, -0.000093357116167, -0.000074110432413, -0.000191747598267, -0.000048566077126, -0.027557119369507, 13.293285533905028, 0.057664556503296, -5.867258577346801, 0.060305681228638, 1.230375562667847, -0.020525728225708, -0.469379025290031, -0.878172032943018, 0.092180318802371, 95.700977212542767, 0.882204534276653, -0.470816760146806, 0.006836524451665, 10.978486070149462, 0.037396394471849, 0.084530816402013, 0.995718861305195, 1325.766920456134130, 0.000000000000000, 0.000000000000000, 0.000000000000000, 1.000000000000000
73, 0.092409519212336, 0.092444573059492, 0.000083440155369, -0.000093896422905, -0.000074014613837, -0.000191477944897, -0.000048506135974, -0.001344249725342, 13.289252784729005, 0.042698183059692, -5.871220264434815, 0.080114116668701, 1.234046831130982, -0.042720214843750, -0.469681373661567, -0.877997607928322, 0.092301721043153, 95.791132542426027, 0.882037616644062, -0.471130275236598, 0.006775439495004, 10.945624248638669, 0.037537315570596, 0.084595887770222, 0.995708032362962, 1325.771834144024524, 0.000000000000000, 0.000000000000000, 0.000000000000000, 1.000000000000000
74, 0.092403766825294, 0.462048375187566, 0.000097791288751, -0.000080743730760, -0.000073535259159, -0.000002426825781, -0.000048715848192, 0.058474863052368, 61.777684627532963, 0.418178081512451, -26.885329141616822, 0.316934967041016, 5.223213768005371, -0.065081577301025, -0.427841645817398, -0.784080811882724, 0.449631856680095, 447.189024488617804, 0.886168604276888, -0.461809885663216, 0.037905597181416, 41.526418431757570, 0.177923384911070, 0.414667227956414, 0.892409300243297, 1223.561503257563572, 0.000000000000000, 0.000000000000000, 0.000000000000000, 1.000000000000000
75, 0.092403796823141, 0.462048405130871, 0.000097821232056, -0.000080593905153, -0.000073822889419, -0.000003295672498, -0.000048865673800, 0.079982858657837, 61.719209764480595, 0.410254707336426, -26.858917894363401, 0.310332155227661, 5.215203727722168, -0.064414073944092, -0.427710249359407, -0.784161087470674, 0.449616871891752, 447.282836031164550, 0.886233208008193, -0.461691874777640, 0.037832707910166, 41.526048254887513, 0.177917519138564, 0.414646839685435, 0.892419943032684, 1223.530795190323261, 0.000000000000000, 0.000000000000000, 0.000000000000000, 1.000000000000000
76, 0.092400950518383, 0.831616763930659, 0.000095873771863, 0.000038679114174, -0.000073439353316, 0.000123257769629, -0.000048566077126, 0.222473329544067, 101.901522554397587, 0.690213928222656, -44.261728897094727, 0.542751131057739, 8.479795770645142, -0.067417839050293, -0.341676014523873, -0.577068658767466, 0.741787883540436, 736.907617564763086, 0.892861340303831, -0.445681829699962, 0.064547142974274, 66.187795466863975, 0.293353247962128, 0.684367934479408, 0.667521087432044, 1000.313038889589507, 0.000000000000000, 0.000000000000000, 0.000000000000000, 1.000000000000000
77, 0.092400770749470, 0.831615535491575, 0.000095843828558, 0.000038798941935, -0.000073343447474, 0.000123227771782, -0.000048715848192, 0.238604326248169, 101.875309684753418, 0.685812053680420, -44.226073713302611, 0.540990381240845, 8.478961391448975, -0.066082832336426, -0.341678768881205, -0.577096570803788, 0.741764899993477, 736.898548395710804, 0.892864774011862, -0.445675688680972, 0.064542047128119, 66.203807851118881, 0.293339588573671, 0.684348397006415, 0.667547119902543, 1000.324277731655116, 0.000000000000000, 0.000000000000000, 0.000000000000000, 1.000000000000000
78, 0.092408171000032, 1.201245253522808, 0.000095903769709, -0.000090720578169, -0.000073247541632, -0.000068939250920, -0.000048536079279, 0.118293975830078, 127.986688474655153, 0.864968347549439, -55.475944480895990, 0.692414865493774, 10.703249452590942, -0.066416584014893, -0.216464535964920, -0.286955580102013, 0.933166437307841, 925.559433315577394, 0.904004018251038, -0.419859505426459, 0.080589891978007, 81.834394803536270, 0.368673079645733, 0.861031062593776, 0.350293690484377, 687.836711871869170, 0.000000000000000, 0.000000000000000, 0.000000000000000, 1.000000000000000
79, 0.092408171000032, 1.201245043756049, 0.000095903769709, -0.000090540809256, -0.000073343447474, -0.000068909307615, -0.000048446194823, 0.114261226654053, 127.972573852539057, 0.866288909912109, -55.468901481628414, 0.695496177673340, 10.698243177413939, -0.067084087371826, -0.216504104988218, -0.286788700610894, 0.933208558536175, 925.621852477662173, 0.903979595796613, -0.419894136980412, 0.080683357099637, 81.818186414854836, 0.368709727165752, 0.861069773555773, 0.350159937974016, 687.761665194268517, 0.000000000000000, 0.000000000000000, 0.000000000000000, 1.000000000000000
80, 0.277209143248930, 0.092414312922746, 0.000085807039998, -0.000073253595743, -0.000074014526571, -0.000192047194941, -0.000048745846039, -0.084015607833862, 13.398137012481691, 0.060305681228638, -5.909956760406494, 0.066908493041992, 1.237884975433350, -0.026533258438110, -0.623651841877310, -0.776475621006503, 0.090244058561238, 92.582362887520603, 0.780776756397906, -0.624364546657592, 0.023591726215455, 27.859380153822048, 0.038026790448368, 0.085173486834960, 0.995640216317406, 1325.777131400855524, 0.000000000000000, 0.000000000000000, 0.000000000000000, 1.000000000000000
81, 0.277191766150960, 0.092414223038289, 0.000093387059472, -0.000074272213526, -0.000074254247543, -0.000185126309966, -0.000048925614951, -0.034950492858887, 13.415612258911132, 0.082315053939819, -5.912597885131836, 0.080554304122925, 1.224534908294678, -0.038381443023682, -0.623618352422258, -0.776516721661050, 0.090121759319958, 92.426279144365921, 0.780807541951988, -0.624325941371205, 0.023594519741961, 27.833495613247113, 0.037943813106267, 0.085081724898681, 0.995651227657166, 1325.778581839819935, 0.000000000000000, 0.000000000000000, 0.000000000000000, 1.000000000000000
82, 0.277199675710413, 0.461990551284141, 0.000097401753079, 0.000046678503542, -0.000073726983577, 0.000027623653289, -0.000048775789344, -0.042343866348267, 61.874470607757566, 0.426101455688477, -26.986132068634031, 0.315174217224121, 5.211532459259033, -0.070588479995728, -0.586016142470217, -0.684649189835857, 0.433405777097434, 432.311299404614147, 0.790592241421583, -0.600347983158759, 0.120607656975859, 122.240045573319634, 0.177620349533277, 0.413325278653888, 0.893091946810272, 1223.257194095110663, 0.000000000000000, 0.000000000000000, 0.000000000000000, 1.000000000000000
83, 0.277192215573242, 0.461994236492311, 0.000101356560077, 0.000028612327768, -0.000073822889419, 0.000042094614433, -0.000048925614951, 0.026212869644165, 61.787094375610351, 0.445029516220093, -26.883568391799926, 0.340264902114868, 5.183163566589355, -0.061910936355591, -0.585858198219684, -0.684902336359551, 0.433219299233096, 432.387244297959455, 0.790734769973098, -0.600188954376178, 0.120464694414678, 122.204393607728662, 0.177506887568841, 0.413136791745857, 0.893201710797490, 1223.225371147066426, 0.000000000000000, 0.000000000000000, 0.000000000000000, 1.000000000000000
84, 0.277197938016978, 0.831645885621860, 0.000095034922992, 0.000027473827681, -0.000073295450920, 0.000025646195249, -0.000048685904887, -0.014114622116089, 101.967390790939334, 0.691534490585327, -44.277135457992550, 0.544511880874634, 8.495482099533081, -0.063412818908691, -0.500154955374652, -0.483643649561301, 0.718285347792369, 712.505107372427801, 0.814182413126436, -0.545117180552059, 0.199885611344556, 199.864612553293796, 0.294876277054959, 0.684789076801024, 0.666417212806068, 1000.261123073040380, 0.000000000000000, 0.000000000000000, 0.000000000000000, 1.000000000000000
85, 0.277196290208000, 0.831655532874748, 0.000099558980032, 0.000007609962779, -0.000073487262604, 0.000027353999920, -0.000048775789344, 0.043688116073608, 101.674344350814820, 0.643554058074951, -44.151682033538819, 0.544511880874634, 8.387012804031372, -0.057071537017822, -0.500207375592765, -0.483560895838895, 0.718304560348940, 712.493143391412104, 0.814146208438896, -0.545144343685359, 0.199958985375574, 199.879136886061019, 0.294887322018375, 0.684825893613365, 0.666374491370646, 1000.255356164350701, 0.000000000000000, 0.000000000000000, 0.000000000000000, 1.000000000000000
86, 0.277195690960111, 1.201246991161701, 0.000094975036382, -0.000026035730921, -0.000073247541632, -0.000073912675701, -0.000048536079279, 0.228522453308105, 128.082802330017103, 0.872451534271240, -55.541092224121094, 0.698137302398682, 10.690400012969970, -0.061910936355591, -0.378866630746149, -0.205425883834401, 0.902363719548784, 894.934554436097187, 0.848846957794756, -0.465568700215984, 0.250408920811117, 250.153720596540268, 0.368671830154745, 0.860840282299832, 0.350763581376824, 687.438915804673115, 0.000000000000000, 0.000000000000000, 0.000000000000000, 1.000000000000000
87, 0.277194941995696, 1.201253043199959, 0.000098809961076, -0.000047337692583, -0.000073151635789, -0.000073373423504, -0.000048745846039, 0.170719715118408, 127.727920402526848, 0.852202911376953, -55.467580919265743, 0.754041109085083, 10.691067516326903, -0.052899641036987, -0.379035600766045, -0.205286597553303, 0.902324457286243, 894.893651936532251, 0.848767979746476, -0.465604910569379, 0.250609225310575, 250.180022976939171, 0.368679983059847, 0.860853924959786, 0.350721527671630, 687.446387107133660, 0.000000000000000, 0.000000000000000, 0.000000000000000, 1.000000000000000
88, 0.462007808608891, 0.092408620476855, 0.000081103214044, -0.000064175538356, -0.000074110519679, -0.000192017251636, -0.000048805787190, -0.120982475280762, 13.498283617019652, 0.065587930679321, -5.948693256378174, 0.063827180862427, 1.244726884841919, -0.031205781936646, -0.756479029381952, -0.648465824699589, 0.085038534218444, 86.206377551936072, 0.652931684880284, -0.756302203702924, 0.041075437350007, 43.738955450144289, 0.037678813473007, 0.086597060404971, 0.995530640485005, 1325.713750283719264, 0.000000000000000, 0.000000000000000, 0.000000000000000, 1.000000000000000
89, 0.462007718724435, 0.092409129785747, 0.000090031500364, -0.000064864616161, -0.000074254334810, -0.000186294807899, -0.000048925614951, -0.116277601242065, 13.478791996002197, 0.061186056137085, -5.963659629821778, 0.069109430313110, 1.233546203613281, -0.047893365859985, -0.756276297436030, -0.648722391072855, 0.084884752795585, 86.146874170783946, 0.653175472881493, -0.756090731464197, 0.041092668688875, 43.757387701328440, 0.037522840543960, 0.086522049875473, 0.995543053475267, 1325.713709785519313, 0.000000000000000, 0.000000000000000, 0.000000000000000, 1.000000000000000
90, 0.462007449071066, 0.461963706593113, 0.000097611519839, 0.000047697230409, -0.000073631077734, 0.000028941922288, -0.000048925614951, -0.108884227752686, 61.975289337158202, 0.421259393692017, -27.017825565338136, 0.316934967041016, 5.214703100204467, -0.072424114227295, -0.722308954896701, -0.561610144894678, 0.403563896833468, 402.924897086178817, 0.668337135639862, -0.716852087363076, 0.198616610503515, 198.969301391045548, 0.177750518426080, 0.413179295215260, 0.893133597623939, 1223.116925975937420, 0.000000000000000, 0.000000000000000, 0.000000000000000, 1.000000000000000
91, 0.462007329243304, 0.461962418321960, 0.000097701404295, 0.000047697230409, -0.000073295538186, 0.000028462556701, -0.000048775789344, -0.091408981323242, 62.000830081939696, 0.495651073455811, -27.040715312957765, 0.272035846710205, 5.222045637130737, -0.070087852478027, -0.722499805686972, -0.561295902082584, 0.403659437010441, 402.960850470779405, 0.668094687305313, -0.717042495943793, 0.198744931520559, 198.914239872897639, 0.177886254603059, 0.413275899752203, 0.893061874176309, 1223.124301145516711, 0.000000000000000, 0.000000000000000, 0.000000000000000, 1.000000000000000
92, 0.462006130747525, 0.831584196795894, 0.000096802559731, 0.000035772922806, -0.000073391356762, 0.000030140308984, -0.000048685904887, -0.067884611129761, 102.014439531326303, 0.677888679504395, -44.297824268341060, 0.537909069061279, 8.492978961944580, -0.074092872619629, -0.641287900031519, -0.375857736443743, 0.668940050549038, 663.898087640137533, 0.708423906566906, -0.624938650090275, 0.328004957626905, 326.982714473445128, 0.294763291265462, 0.684238734345499, 0.667032200529796, 999.974454014846401, 0.000000000000000, 0.000000000000000, 0.000000000000000, 1.000000000000000
93, 0.462006130802066, 0.831582638816831, 0.000096652788665, 0.000035742924960, -0.000073487262604, 0.000030110365679, -0.000048596020431, -0.084687732696533, 101.908243803024305, 0.750079421997070, -44.259087772369384, 0.595133438110351, 8.479795770645142, -0.069587224960327, -0.641241809549280, -0.375841411534718, 0.668993404348321, 663.887498271053232, 0.708438998544635, -0.624948066337678, 0.327954417140357, 326.943000758617643, 0.294827283383066, 0.684239101306252, 0.667003542131954, 1000.011518928720648, 0.000000000000000, 0.000000000000000, 0.000000000000000, 1.000000000000000
94, 0.461995315051246, 1.201246511850656, 0.000095813885253, 0.000005452790368, -0.000073055817214, 0.000054618115383, -0.000048655961582, -0.221129079818726, 128.018278343200677, 0.860126285552979, -55.504116477966306, 0.688893365859985, 10.660028610229492, -0.062578439712524, -0.529262186194128, -0.115494502580233, 0.840560859271211, 833.509076093668909, 0.763819054509106, -0.496191996014375, 0.412763800568903, 409.854033600197113, 0.369407620703509, 0.860496672256793, 0.350832562344430, 687.562414285291538, 0.000000000000000, 0.000000000000000, 0.000000000000000, 1.000000000000000
95, 0.461995644591225, 1.201246601735112, 0.000095813885253, 0.000005902267191, -0.000073007907926, 0.000054707999840, -0.000048446194823, -0.204998083114624, 128.026343841552745, 0.870250597000122, -55.506757602691650, 0.695055990219116, 10.659694858551026, -0.062077812194824, -0.529200394153714, -0.115479742677946, 0.840601791491422, 833.525514098672602, 0.763846434796639, -0.496191644739502, 0.412713551678609, 409.847317540992947, 0.369439530743554, 0.860498855735290, 0.350793603707706, 687.556130564854129, 0.000000000000000, 0.000000000000000, 0.000000000000000, 1.000000000000000
96, 0.646808241551051, 0.092397624902580, 0.000084428884389, -0.000088353693540, -0.000073918707995, -0.000191807539418, -0.000048805787190, -0.096785980224609, 13.675724580764770, 0.066468305587769, -5.990951251983643, 0.068669242858887, 1.260246337890625, -0.040217077255249, -0.863970034357668, -0.497830439592940, 0.075634867268419, 76.955903093719144, 0.502142204260247, -0.862988576832256, 0.055712861690084, 58.258347850823434, 0.037536468036714, 0.086113701997641, 0.995577944661085, 1325.660650133555919, 0.000000000000000, 0.000000000000000, 0.000000000000000, 1.000000000000000
97, 0.646804706223030, 0.092409549210183, 0.000093327118321, -0.000089761846995, -0.000074062523125, -0.000185246137727, -0.000048925614951, -0.122998849868774, 13.523152236938476, 0.037856121063232, -5.951334381103516, 0.039616870880127, 1.251735670089722, -0.054568399429321, -0.863919568428170, -0.497925019230822, 0.075588719468383, 76.908081653058218, 0.502231980720364, -0.862937548165583, 0.055694034758414, 58.251736626227128, 0.037496890918897, 0.086078238771235, 0.995582502850195, 1325.655348715732998, 0.000000000000000, 0.000000000000000, 0.000000000000000, 1.000000000000000
98, 0.646801260779466, 0.461970238051499, 0.000097222038708, 0.000047307749278, -0.000073679074289, -0.000014620732210, -0.000048925614951, -0.112244852066040, 62.057960695266729, 0.425221080780029, -27.068006935119627, 0.316494779586792, 5.224715650558472, -0.076429134368896, -0.830915190009758, -0.422422512041590, 0.362131424114948, 359.653867279666883, 0.527171023133664, -0.805870729931696, 0.269560900368660, 269.395372300833571, 0.177962522400795, 0.414887440108554, 0.892299138552155, 1223.251483331749796, 0.000000000000000, 0.000000000000000, 0.000000000000000, 1.000000000000000
99, 0.646801320666076, 0.461969518975848, 0.000097281925318, 0.000047517461496, -0.000073631077734, -0.000014800501123, -0.000049075386018, 0.006721248626709, 61.999485832214361, 0.395728521347046, -27.034112501144406, 0.304609718322754, 5.215036851882934, -0.072590990066528, -0.830822013371893, -0.422504774543948, 0.362249220267265, 359.730032761302027, 0.527302181125277, -0.805787854370562, 0.269552116536693, 269.417524675828020, 0.178008965721389, 0.414964636127530, 0.892253976671636, 1223.235895048370594, 0.000000000000000, 0.000000000000000, 0.000000000000000, 1.000000000000000
100, 0.646799553029336, 0.831591477164153, 0.000096562904209, 0.000040027271936, -0.000073391356762, 0.000020013635968, -0.000048805787190, -0.087376232147217, 102.056783397674565, 0.691094303131103, -44.323355140686033, 0.540550193786621, 8.498485864639282, -0.071756610870361, -0.760655480858568, -0.254083232349319, 0.597365006071449, 592.733957381914365, 0.578186388952065, -0.683545648051253, 0.445495057953244, 442.868832712686412, 0.295133425877842, 0.684256573274320, 0.666850210212528, 999.913631940849086, 0.000000000000000, 0.000000000000000, 0.000000000000000, 1.000000000000000
101, 0.646799373260424, 0.831611281087903, 0.000098660135469, 0.000021182133901, -0.000073247541632, 0.000021871211706, -0.000048955558256, -0.105523603439331, 101.916309301376344, 0.677008304595947, -44.205384902954101, 0.518540821075439, 8.491643955230714, -0.068752845764160, -0.760657883240468, -0.254057421685324, 0.597372924688369, 592.721238477350198, 0.578175338670529, -0.683547864624815, 0.445505998298648, 442.874070494853811, 0.295148881782315, 0.684263942681083, 0.666835807623728, 999.917995916720315, 0.000000000000000, 0.000000000000000, 0.000000000000000, 1.000000000000000
102, 0.646800901241640, 1.201246991161701, 0.000096532960904, 0.000011564769777, -0.000073151635789, 0.000031278863612, -0.000048566077126, -0.119638225555420, 128.097589076995860, 0.862327222824097, -55.543733348846430, 0.691974678039551, 10.666036140441895, -0.065582204818726, -0.660240140899066, -0.021938741679512, 0.750734072730885, 744.490372969201644, 0.653568500764111, -0.509269175704244, 0.559904564623716, 555.770578830302384, 0.370042120784288, 0.860327611024451, 0.350578422830651, 687.056735740722502, 0.000000000000000, 0.000000000000000, 0.000000000000000, 1.000000000000000
103, 0.646800901241640, 1.201247170985156, 0.000096742673121, 0.000011744538689, -0.000072672368377, 0.000031308806917, -0.000048506135974, 0.023524370193481, 128.129178945541383, 0.932757215499878, -55.534049224853518, 0.664242868423462, 10.662197996139525, -0.068585969924927, -0.660177647556445, -0.021919005268583, 0.750789604932617, 744.576142261566361, 0.653605439710610, -0.509276927296167, 0.559854392234691, 555.720886360511827, 0.370088371672955, 0.860323525501779, 0.350539624893750, 687.042716078798776, 0.000000000000000, 0.000000000000000, 0.000000000000000, 1.000000000000000
104, 0.831607805701034, 0.092372338190616, 0.000087245191300, -0.000094375733951, -0.000073870798707, -0.000191897423874, -0.000048895617105, -0.084015607833862, 13.770494186401368, 0.060305681228638, -6.015161561965942, 0.061626243591309, 1.266086992263794, -0.038214567184448, -0.941045564968715, -0.331809137281413, 0.065847863057779, 65.219517673121956, 0.335895630305798, -0.939609383841224, 0.065637880366344, 71.044092197424618, 0.040092021577644, 0.083886245678778, 0.995668482775134, 1325.824423779342851, 0.000000000000000, 0.000000000000000, 0.000000000000000, 1.000000000000000
105, 0.831598278221366, 0.092382315038024, 0.000092188672776, -0.000095694057491, -0.000074062523125, -0.000186384692355, -0.000048985501561, -0.096113855361938, 13.648167461395264, 0.115329113006592, -5.887067012786865, 0.071310367584229, 1.244726884841919, -0.052565889358521, -0.940962028700890, -0.332056204867513, 0.065796180376146, 65.284015809965283, 0.336139668977308, -0.939519158724709, 0.065680083199108, 71.047923960192875, 0.040007292871818, 0.083919170623885, 0.995669116382982, 1325.820442768305838, 0.000000000000000, 0.000000000000000, 0.000000000000000, 1.000000000000000
106, 0.831601304240495, 0.461961489588633, 0.000097461694231, 0.000042903574540, -0.000073726983577, 0.000024597579619, -0.000048955558256, -0.084015607833862, 62.109714309692386, 0.427862205505371, -27.073289184570314, 0.318695716857910, 5.228386919021606, -0.077764141082764, -0.913919149947450, -0.265433991203972, 0.307077488059382, 303.857202503254769, 0.364116228038712, -0.870446481743996, 0.331273746165253, 330.399351328591763, 0.179363206478338, 0.414569317163040, 0.892166532340672, 1223.301815977680690, 0.000000000000000, 0.000000000000000, 0.000000000000000, 1.000000000000000
107, 0.831601334183800, 0.461960111323941, 0.000097461694231, 0.000043053291065, -0.000073822889419, 0.000024657520770, -0.000048865673800, -0.025540744781494, 62.092911188125612, 0.442828578948975, -27.099700431823731, 0.291404094696045, 5.228053167343139, -0.080601030349731, -0.913976711937280, -0.265342967738716, 0.306984819670175, 303.841787956383087, 0.364000547334031, -0.870472097378259, 0.331333561877485, 330.417071198970348, 0.179304689221573, 0.414573801822434, 0.892176210883057, 1223.293757439074852, 0.000000000000000, 0.000000000000000, 0.000000000000000, 1.000000000000000
108, 0.831593334739890, 0.831647922857427, 0.000096353191991, -0.000026664922115, -0.000073487262604, 0.000017137387906, -0.000048775843885, -0.125687349319458, 102.123323759078971, 0.689773740768433, -44.335240201950072, 0.541870756149292, 8.539203569412232, -0.074426624298096, -0.854461523577492, -0.123389964237664, 0.504648810016490, 501.378496603334156, 0.427695903483890, -0.718495268909246, 0.548489528339538, 543.638859698758779, 0.294909679170980, 0.684499426793374, 0.666699944390887, 999.860905061085191, 0.000000000000000, 0.000000000000000, 0.000000000000000, 1.000000000000000
109, 0.831588600970632, 0.831655862414727, 0.000099229385512, -0.000046828329150, -0.000073439353316, 0.000018006289165, -0.000048985501561, -0.081327108383179, 101.963358041763300, 0.680089616775513, -44.349326200485230, 0.508416509628296, 8.491477079391480, -0.074092872619629, -0.854382152275756, -0.123635855468529, 0.504723006326452, 501.315666043337558, 0.427917559136796, -0.718448145413122, 0.548378359287501, 543.694671620478630, 0.294818080271637, 0.684504519776904, 0.666735226270471, 999.863623197427273, 0.000000000000000, 0.000000000000000, 0.000000000000000, 1.000000000000000
110, 0.831589619588415, 1.201216191772759, 0.000094855154079, -0.000011744538689, -0.000073055817214, -0.000046498789171, -0.000048715902734, -0.077294359207153, 128.106998825073248, 0.870690784454346, -55.540211849212646, 0.696816740036011, 10.685059986114503, -0.070755355834961, -0.768662238381425, 0.074108813782693, 0.635347343589457, 629.839362514047366, 0.520448692223421, -0.504995299323420, 0.688558571527637, 682.546583872472524, 0.371875680906117, 0.859934666925907, 0.349600981934606, 687.251370215975157, 0.000000000000000, 0.000000000000000, 0.000000000000000, 1.000000000000000
111, 0.831589080336219, 1.201244624331614, 0.000096862500883, -0.000032866731439, -0.000073007820659, -0.000043982133475, -0.000048805787190, -0.061163362503052, 127.623068923950200, 0.874652471542358, -55.341687307357788, 0.741275672912598, 10.614638381958008, -0.061910936355591, -0.768517910626888, 0.074265899001292, 0.635503577717083, 629.825081635382730, 0.520493858560130, -0.505082185102414, 0.688460695677944, 682.535889636924026, 0.372110688165323, 0.859870084685879, 0.349509761259151, 687.287757332137744, 0.000000000000000, 0.000000000000000, 0.000000000000000, 1.000000000000000
112, 1.016407489678779, 0.092349867731020, 0.000088293752388, 0.000067201557485, -0.000073966617283, -0.000194174369506, -0.000048895617105, -0.099474479675293, 13.785280933380125, 0.067788867950439, -6.138854236602783, 0.069109430313110, 1.242557498931885, -0.039716449737549, -0.986607771801719, -0.154313895344080, 0.052842467052394, 51.492014142723583, 0.158079659231411, -0.984449866678409, 0.076611235038627, 81.281333720925147, 0.040198581538756, 0.083938559081027, 0.995659777404748, 1325.804081830657879, 0.000000000000000, 0.000000000000000, 0.000000000000000, 1.000000000000000
113, 1.016407489678779, 0.092350017556628, 0.000088143981322, 0.000067950576441, -0.000074062523125, -0.000193904770678, -0.000049015444866, -0.106867853164673, 13.763772937774657, 0.027731809616089, -6.115084114074707, 0.067348680496216, 1.254739435195923, -0.042553339004517, -0.986585408133097, -0.154470391513403, 0.052802751865283, 51.503788316722357, 0.158235788353586, -0.984418378136467, 0.076693494321795, 81.299363368454394, 0.040133125257945, 0.084019967465263, 0.995655551545898, 1325.802076881721632, 0.000000000000000, 0.000000000000000, 0.000000000000000, 1.000000000000000
114, 1.016398471508003, 0.461999539457071, 0.000097222038708, 0.000041585305541, -0.000073822889419, 0.000059321941337, -0.000048985501561, 0.020163745880127, 62.146681177139286, 0.424780893325806, -27.107623805999754, 0.315174217224121, 5.227218788146972, -0.077597265243530, -0.964744982314284, -0.101503565257510, 0.242825339162590, 238.957490764764771, 0.191179717510353, -0.904374814521927, 0.381518689543634, 380.318937068144464, 0.180879613865339, 0.414491521141802, 0.891896487373665, 1223.255638582800202, 0.000000000000000, 0.000000000000000, 0.000000000000000, 1.000000000000000
115, 1.016399370352567, 0.462015598340583, 0.000099199387665, 0.000026574983117, -0.000073774892865, 0.000073043828983, -0.000048955558256, 0.036294742584229, 62.016288953781128, 0.429182767868042, -26.965883445739745, 0.329700403213501, 5.205191177368164, -0.069920976638794, -0.964750882006274, -0.101619696597914, 0.242753317034935, 238.933122997581592, 0.191260982988447, -0.904349766364710, 0.381537332986416, 380.329661352374956, 0.180762197525945, 0.414517716556774, 0.891908117804827, 1223.258510321945778, 0.000000000000000, 0.000000000000000, 0.000000000000000, 1.000000000000000
116, 1.016401947003955, 0.831599866198276, 0.000096053540775, 0.000037930040676, -0.000073487262604, 0.000047127980365, -0.000048775843885, 0.014114622116089, 102.117274635314942, 0.681410179138184, -44.358129949569701, 0.541430568695068, 8.503992767333983, -0.076762886047363, -0.916819375049634, 0.008417622306065, 0.399213448130585, 392.554646546119159, 0.267758649286082, -0.728724358763352, 0.630290500227819, 626.694964882990007, 0.296222111372686, 0.684755396166875, 0.665854720005990, 1000.106228719298542, 0.000000000000000, 0.000000000000000, 0.000000000000000, 1.000000000000000
117, 1.016401617409434, 0.831597679028018, 0.000096263252993, 0.000037989981828, -0.000073199632344, 0.000047277751432, -0.000048805787190, 0.061163362503052, 102.101815763473510, 0.661161556243896, -44.356809387207029, 0.512818384170532, 8.496316478729248, -0.065415328979492, -0.916867548204273, 0.008589456690762, 0.399099135909417, 392.565395160765036, 0.267535919297882, -0.728791996136582, 0.630306876253697, 626.666388250523369, 0.296274249531280, 0.684681274463537, 0.665907742456613, 1000.115033601835307, 0.000000000000000, 0.000000000000000, 0.000000000000000, 1.000000000000000
118, 1.016401707239349, 1.201246931275092, 0.000095454347427, 0.000005692500432, -0.000073247541632, -0.000029121636659, -0.000048745846039, -0.013442497253418, 128.120441322326656, 0.865848722457886, -55.552977285385133, 0.691094303131104, 10.679052455902099, -0.074092872619629, -0.850785406654756, 0.166813435667036, 0.498334696267742, 493.722838501567423, 0.370011788151112, -0.483228216940451, 0.793461887542035, 786.279797359577742, 0.373169490248760, 0.859455506721268, 0.349400577437944, 687.343968330211169, 0.000000000000000, 0.000000000000000, 0.000000000000000, 1.000000000000000
119, 1.016402516199457, 1.201253702389000, 0.000097971003123, -0.000015010267882, -0.000073007820659, -0.000027833365507, -0.000048865673800, -0.032261993408203, 127.873771497726437, 0.851322536468506, -55.505437040328978, 0.732031736373901, 10.690900640487671, -0.058239667892456, -0.850934548735439, 0.166472613537357, 0.498194001078351, 493.693187520096615, 0.370046297786398, -0.483144128367174, 0.793496999817204, 786.307221457502578, 0.372795025802377, 0.859568857140814, 0.349521456523974, 687.293305104580668, 0.000000000000000, 0.000000000000000, 0.000000000000000, 1.000000000000000
120, 1.201206963889765, 0.092428993596108, 0.000079904827348, -0.000021511728422, -0.000073918707995, -0.000192077192787, -0.000048895617105, -0.111572727203369, 13.745625566482545, 0.063386993408203, -6.080309305191040, 0.069549617767334, 1.260413213729858, -0.047559614181519, -0.998806315561881, 0.030163319398299, 0.038420283140245, 36.175946404079347, -0.026723363730597, -0.995841074690287, 0.087100033241186, 88.928446158405450, 0.040887722174543, 0.085969344085957, 0.995458420052193, 1325.800237746687117, 0.000000000000000, 0.000000000000000, 0.000000000000000, 1.000000000000000
121, 1.201207023776375, 0.092428813827195, 0.000078856157177, -0.000021841213859, -0.000073918707995, -0.000191807539418, -0.000049105329323, -0.112244852066040, 13.731510944366455, 0.063827180862427, -6.110242052078247, 0.069109430313110, 1.263750730514526, -0.045557104110718, -0.998801650481175, 0.030332367534731, 0.038408468803353, 36.105841795960565, -0.026892034177606, -0.995834632326687, 0.087121774296457, 88.950018839422810, 0.040891093087256, 0.085984490104380, 0.995456973438641, 1325.795169696223184, 0.000000000000000, 0.000000000000000, 0.000000000000000, 1.000000000000000
122, 1.201190635352884, 0.461965324513328, 0.000098959732143, 0.000038199748587, -0.000073631077734, 0.000041854904369, -0.000048985501561, 0.040999616622925, 62.136599304199223, 0.420379018783569, -27.080772371292113, 0.314734029769897, 5.229388174057007, -0.079432899475098, -0.983398861687375, 0.065931377178693, 0.169055412026047, 165.250584260253788, 0.011242904953594, -0.907726278717985, 0.419412207753903, 417.255505951887756, 0.181108464518310, 0.414350161612277, 0.891915729007904, 1223.296968492323003, 0.000000000000000, 0.000000000000000, 0.000000000000000, 1.000000000000000
123, 1.201190575466274, 0.461964006244328, 0.000098899845533, 0.000038319576348, -0.000073631077734, 0.000041974786672, -0.000048985501561, 0.100146604537964, 62.135927179336548, 0.391326646804810, -27.086494808197020, 0.302848968505859, 5.230556304931641, -0.082269788742065, -0.983404616698872, 0.066059247754363, 0.168971996619181, 165.336843438346648, 0.011089987129835, -0.907726154573773, 0.419416547704273, 417.242904211220718, 0.181086642358858, 0.414330066600094, 0.891929494898760, 1223.288390351805674, 0.000000000000000, 0.000000000000000, 0.000000000000000, 1.000000000000000
124, 1.201199443811442, 0.831626740778068, 0.000096263252993, 0.000031368693527, -0.000073535171892, 0.000037270906177, -0.000048895617105, -0.069228860855103, 102.150208753585815, 0.687132616043091, -44.363852386474605, 0.544071693420410, 8.509666545867919, -0.074760375976563, -0.950193292345343, 0.143335151130172, 0.276744903534659, 271.736740970013329, 0.093931580379873, -0.714969896840305, 0.692816645888003, 687.611457470857090, 0.297169253775111, 0.684304815899066, 0.665895902936855, 1000.033161398793482, 0.000000000000000, 0.000000000000000, 0.000000000000000, 1.000000000000000
125, 1.201198395195812, 0.831649091355360, 0.000099109557750, 0.000012403673189, -0.000073487262604, 0.000038918769697, -0.000049015444866, -0.036294742584229, 101.859850812911986, 0.626826934814453, -44.310589704513546, 0.542751131057739, 8.501155878067017, -0.064247198104858, -0.950235601953058, 0.143159444977007, 0.276690574640309, 271.649314754196837, 0.094028215947758, -0.714943203639089, 0.692831083436618, 687.628899411079601, 0.297003359217688, 0.684369482724172, 0.665903458264978, 1000.032953234177285, 0.000000000000000, 0.000000000000000, 0.000000000000000, 1.000000000000000
126, 1.201190365754056, 1.201246751506179, 0.000094375788492, -0.000001198441238, -0.000073151635789, -0.000061688825966, -0.000048775789344, 0.001344249725342, 128.083474454879763, 0.867609472274780, -55.532288475036623, 0.697697114944458, 10.721939546585084, -0.073925996780396, -0.904213242177675, 0.249905983878048, 0.346331361404771, 340.762117467895564, 0.210139898967819, -0.445634863075753, 0.870201581056510, 863.599701756855325, 0.371805911104614, 0.859625830250231, 0.350433726165545, 687.155726119255405, 0.000000000000000, 0.000000000000000, 0.000000000000000, 1.000000000000000
127, 1.201194590159881, 1.201254721061325, 0.000098959732143, -0.000018395824837, -0.000072864092795, -0.000061239403684, -0.000048835730495, -0.048392990112305, 127.826050632476807, 0.907666530609131, -55.411677112579348, 0.647955932617188, 10.575255683898925, -0.087609815597534, -0.904107298283267, 0.250151331829308, 0.346430807485356, 340.808959847329845, 0.210134959878711, -0.445645023523820, 0.870197570466171, 863.576029527567357, 0.372066246557929, 0.859549198238517, 0.350345378133946, 687.188938586759718, 0.000000000000000, 0.000000000000000, 0.000000000000000, 1.000000000000000
128, 1.386006617924205, 0.092447029828577, 0.000077178404893, 0.000009767135191, -0.000074062523125, -0.000191747598267, -0.000048955558256, -0.099474479675293, 13.753018939971923, 0.062506618499756, -6.075907430648804, 0.067788867950439, 1.259578834533691, -0.043220842361450, -0.976797818405410, 0.212951201131269, 0.022755392661573, 19.476788291938284, -0.210038450928950, -0.973314100876218, 0.092431110384360, 93.603408273646366, 0.041831460526731, 0.085506999551315, 0.995459030768184, 1325.843683478838102, 0.000000000000000, 0.000000000000000, 0.000000000000000, 1.000000000000000
129, 1.386006348270836, 0.092446880057511, 0.000075800194743, 0.000009797133037, -0.000074014526571, -0.000191448001593, -0.000049045442713, -0.057130613327026, 13.777215435028076, 0.058985118865967, -6.142375736236573, 0.109166488647461, 1.271093267440796, -0.053900896072388, -0.976761940436536, 0.213104976494917, 0.022855649361886, 19.495001825825707, -0.210183364499085, -0.973283417115713, 0.092424797838058, 93.609524425007919, 0.041941208882162, 0.085473147600064, 0.995457320047846, 1325.848380679992033, 0.000000000000000, 0.000000000000000, 0.000000000000000, 1.000000000000000
130, 1.385990019733955, 0.462006130802066, 0.000097371809774, 0.000038469401956, -0.000073870798707, 0.000024867287529, -0.000049075386018, 0.051081489562988, 62.159451549530033, 0.419058456420898, -27.108063993453978, 0.322657403945923, 5.238399469375610, -0.079266023635864, -0.968669386188809, 0.231412370622985, 0.090155060774461, 86.194641089135246, -0.169049366798333, -0.880310410873625, 0.443256011908008, 440.156801376318242, 0.181939363101225, 0.414127873041841, 0.891849860079689, 1223.338353902254312, 0.000000000000000, 0.000000000000000, 0.000000000000000, 1.000000000000000
131, 1.385988881233868, 0.462023388072275, 0.000098959732143, 0.000022230749531, -0.000073774892865, 0.000038289578502, -0.000049165270474, 0.069900985717773, 61.772307628631594, 0.401891145706177, -26.608891420364380, 0.345987339019775, 5.126759532928467, -0.072590990066528, -0.968628886275639, 0.231586842350505, 0.090142193907948, 86.158198995358390, -0.169217624147394, -0.880288619983565, 0.443235085711118, 440.151708318691192, 0.181998561396311, 0.414076659542111, 0.891861560822149, 1223.338296425783255, 0.000000000000000, 0.000000000000000, 0.000000000000000, 1.000000000000000
132, 1.385991338002954, 0.831621198048702, 0.000096532960904, 0.000035742979502, -0.000073487262604, 0.000035533212742, -0.000048985501561, 0.120310350418091, 102.164323375701912, 0.685812053680420, -44.369134635925292, 0.542310943603516, 8.510834676742554, -0.074426624298096, -0.951442769194755, 0.271136588696882, 0.145745007519411, 140.844267031506348, -0.080739267965909, -0.676698897011852, 0.731819495088285, 725.487467789795346, 0.297048527273482, 0.684517021740702, 0.665731642174153, 1000.076362500066807, 0.000000000000000, 0.000000000000000, 0.000000000000000, 1.000000000000000
133, 1.385990169559562, 0.831643009373797, 0.000098120883272, 0.000015729288992, -0.000073535259159, 0.000037270960718, -0.000049135327169, 0.053769989013672, 101.732819213867188, 0.754481296539307, -44.100620288848873, 0.494770698547363, 8.380337770462035, -0.079099147796631, -0.951449400609320, 0.271177288419376, 0.145625946608698, 140.840917209287937, -0.080847248156554, -0.676666530131148, 0.731837502090310, 725.501592531584151, 0.296997913369231, 0.684532895663742, 0.665737902036932, 1000.065569285984111, 0.000000000000000, 0.000000000000000, 0.000000000000000, 1.000000000000000
134, 1.386001374791513, 1.201246511850656, 0.000095604173035, -0.000003715151475, -0.000073055817214, -0.000050693306232, -0.000048835730495, -0.116277601242065, 128.147998441696160, 0.862767410278320, -55.576307220458986, 0.695496177673340, 10.693570653915405, -0.074927251815796, -0.928096826558196, 0.325049058935203, 0.181602284726664, 176.157665987735413, 0.042698664114460, -0.391602486684936, 0.919143251351505, 911.270557526653192, 0.369882555165077, 0.860808109689676, 0.349565864576391, 687.226533870157368, 0.000000000000000, 0.000000000000000, 0.000000000000000, 1.000000000000000
135, 1.385995592406625, 1.201257297658172, 0.000097791288751, -0.000024088270727, -0.000072959911371, -0.000049974176040, -0.000048985501561, 0.010081872940063, 128.058605834960929, 0.820949602127075, -55.362376117706297, 0.686692428588867, 10.664868009567261, -0.075261003494263, -0.928116830897169, 0.324988406696097, 0.181608600342957, 176.228128587780049, 0.042730807324551, -0.391599003333792, 0.919143241662241, 911.242728455388715, 0.369828644524444, 0.860832594701846, 0.349562608967405, 687.237319812428382, 0.000000000000000, 0.000000000000000, 0.000000000000000, 1.000000000000000
136, 1.570806211962952, 0.092448917347619, 0.000086466229039, -0.000050153999494, -0.000074014526571, -0.000189949963681, -0.000049165270474, -0.110228477478027, 13.749658315658570, 0.062066431045532, -6.091754179000855, 0.066468305587769, 1.273429529190063, -0.049228372573853, -0.921706376362553, 0.387863948181731, 0.004348962346553, 1.603134557580370, -0.385740952135824, -0.917724261072080, 0.094795034073802, 95.348266538905563, 0.040758724439808, 0.085695614476967, 0.995487311843529, 1325.679899292250184, 0.000000000000000, 0.000000000000000, 0.000000000000000, 1.000000000000000
137, 1.570791830886265, 0.092448977288771, 0.000094915040689, -0.000063306691639, -0.000074158428967, -0.000186804062249, -0.000049225211625, -0.066540361404419, 13.694544076919556, 0.110487051010132, -6.010319499969482, 0.105644989013672, 1.249900035858154, -0.052565889358521, -0.921709633029103, 0.387854409600624, 0.004506587923031, 1.588515958056951, -0.385717859755540, -0.917733742616866, 0.094797206330383, 95.329855624885141, 0.040903362294094, 0.085637226810490, 0.995486403893718, 1325.693885301476939, 0.000000000000000, 0.000000000000000, 0.000000000000000, 1.000000000000000
138, 1.570791770999655, 0.461957894319461, 0.000097461694231, 0.000036881479588, -0.000073679074289, 0.000016358425645, -0.000049195268321, 0.023524370193481, 62.136599304199223, 0.425661268234253, -27.076370496749878, 0.321336841583252, 5.232225063323975, -0.079599775314331, -0.921316952007624, 0.388757832736663, 0.006513173517826, 3.333926827555964, -0.344042078492948, -0.822920302338406, 0.452147347913840, 448.067201650190839, 0.181135645773087, 0.414330210683652, 0.891919477500748, 1223.249956158135774, 0.000000000000000, 0.000000000000000, 0.000000000000000, 1.000000000000000
139, 1.570791471348439, 0.461975630955257, 0.000102405175707, 0.000021601558336, -0.000073726983577, 0.000033435981482, -0.000049165270474, 0.057130613327026, 62.045862447738642, 0.426541643142700, -26.910860013961791, 0.323977966308594, 5.194010496139526, -0.074426624298096, -0.921283932075649, 0.388835296758550, 0.006559610805699, 3.373689754074940, -0.344095488123293, -0.822907398215282, 0.452130190338743, 448.063102255413412, 0.181202128995288, 0.414283147083302, 0.891927834799615, 1223.258733912946582, 0.000000000000000, 0.000000000000000, 0.000000000000000, 1.000000000000000
140, 1.570798841710237, 0.831638185720083, 0.000093237233864, 0.000032896729286, -0.000073487262604, 0.000026185501987, -0.000049105383864, -0.036966867446899, 102.154913627624509, 0.687132616043091, -44.369574823379516, 0.541870756149292, 8.511335304260253, -0.074593500137329, -0.920843925707321, 0.389826326125328, 0.009049858980036, 5.339197133391356, -0.253488490604236, -0.616101004105733, 0.745763459731766, 738.618996370184846, 0.296293856870364, 0.684437716815443, 0.666149354260249, 1000.084945579710393, 0.000000000000000, 0.000000000000000, 0.000000000000000, 1.000000000000000
141, 1.570798661941324, 0.831659218028376, 0.000099498984339, 0.000013991541016, -0.000073535259159, 0.000027174231007, -0.000049225211625, -0.069900985717773, 101.713327592849737, 0.702539176940918, -44.087414665222170, 0.474962263107300, 8.386178424835204, -0.080934782028198, -0.920747744557948, 0.390060681483366, 0.008732448235447, 5.314680472096780, -0.253880425425652, -0.615985789302990, 0.745725309321377, 738.600815259154615, 0.296257186372149, 0.684407898944413, 0.666196297937292, 1000.085602817018298, 0.000000000000000, 0.000000000000000, 0.000000000000000, 1.000000000000000
142, 1.570787067173701, 1.201245103697201, 0.000093746597298, -0.000001857575737, -0.000073055817214, -0.000051891692929, -0.000048775789344, -0.082671358108520, 128.131195320129393, 0.864968347549439, -55.567943658828739, 0.697256927490234, 10.690733764648439, -0.076262258529663, -0.920514017966974, 0.390584759162529, 0.009873633386284, 5.952193200927150, -0.128536694254377, -0.326600854067488, 0.936381439560046, 927.795202902438859, 0.368961056151532, 0.860683117083365, 0.350845138218003, 687.263191030606095, 0.000000000000000, 0.000000000000000, 0.000000000000000, 1.000000000000000
143, 1.570787007232550, 1.201245073753896, 0.000093596826231, -0.000001318268999, -0.000073247541632, -0.000051981577385, -0.000049045442713, -0.108884227752686, 128.082130205154414, 0.851762723922729, -55.534929599761966, 0.659400806427002, 10.693403778076171, -0.081101657867432, -0.920476879801042, 0.390672677175140, 0.009857639704681, 6.028698658573618, -0.128589667364339, -0.326601424783539, 0.936373967374409, 927.782518517688459, 0.369035243843819, 0.860642997205096, 0.350865530029614, 687.278827504752257, 0.000000000000000, 0.000000000000000, 0.000000000000000, 1.000000000000000
144, 1.755594450998682, -1.570846209346125, 0.000023249367315, 0.000064085653900, -0.000074637696379, -0.000194863501852, -0.000049404925997, -0.579371631622315, -135.991023464202897, -1.017713394165039, 58.793637323379514, -0.705180301666260, -11.204544473648070, -0.031205781936646, -0.904928652092611, 0.383863904409013, 0.183718908971612, 177.919844993836705, -0.164026275043992, 0.083738989386986, -0.982895295925074, -974.615342040632868, -0.392682461687613, -0.919584843583405, -0.012814044429509, 332.491469643264111, 0.000000000000000, 0.000000000000000, 0.000000000000000, 1.000000000000000
145, 1.755596188746658, -1.570846179402820, 0.000023129539553, 0.000063875941682, -0.000074829508064, -0.000194414079570, -0.000049584694909, -0.577355257034302, -135.945991098403908, -1.064813451766968, 58.740374641418455, -0.682730741500854, -11.175841829299927, -0.039883325576782, -0.904922927430216, 0.383765742505147, 0.183952032580783, 177.776953250675888, -0.164332716955948, 0.083617747152253, -0.982854429963592, -974.666427997718756, -0.392567514637934, -0.919636845303979, -0.012602349397649, 332.446691238316703, 0.000000000000000, 0.000000000000000, 0.000000000000000, 1.000000000000000
146, 1.755594031574246, -1.201148480906382, 0.000046498843712, 0.000084039403258, -0.000074302244097, 0.000073493305807, -0.000049974230581, -0.494011774063110, -127.184171388626098, -0.921752529144287, 55.012427091598511, -0.662041931152344, -10.461613237380980, -0.075094127655029, -0.879173890359498, 0.443940168513694, 0.173119604003065, 166.032727561746583, -0.304769355942836, -0.244610241015564, -0.920478934940120, -911.367971046223488, -0.366290745430914, -0.862022596438365, 0.350354296450500, 691.329688177448929, 0.000000000000000, 0.000000000000000, 0.000000000000000, 1.000000000000000
147, 1.755594480996528, -1.201148301137470, 0.000046408959256, 0.000084189174325, -0.000074493968516, 0.000072714289004, -0.000050363711712, -0.403947042465210, -127.145860271453856, -0.956087150573731, 55.027833652496341, -0.645314807891846, -10.492819019317627, -0.083938547134399, -0.879021305322201, 0.444216994070006, 0.173184315020333, 165.999426634790268, -0.304879257283730, -0.244432259874330, -0.920489820047375, -911.386199264916968, -0.366565387438278, -0.861930468490432, 0.350293711362464, 691.312583326521690, 0.000000000000000, 0.000000000000000, 0.000000000000000, 1.000000000000000
148, 1.755595769267681, -0.831562984718688, 0.000054917712057, 0.000089432252475, -0.000074398149940, 0.000193305522788, -0.000050453541627, -0.149211719512939, -100.734041667938229, -0.746998109817505, 43.639744024276737, -0.533067007064819, -8.376499626159667, -0.089779201507568, -0.857512434819793, 0.495712428363963, 0.137628530817320, 132.437710492952789, -0.424990194377819, -0.531800302226859, -0.732510595987611, -723.825388587571524, -0.289923712055663, -0.686627720760621, 0.666698293286357, 1003.180806055372841, 0.000000000000000, 0.000000000000000, 0.000000000000000, 1.000000000000000
149, 1.755595769267681, -0.831562894779690, 0.000054947655362, 0.000089582078082, -0.000074398149940, 0.000193125753876, -0.000050333768407, -0.170719715118408, -100.715894296646127, -0.748318672180176, 43.615973901748660, -0.529105319976807, -8.372160854339601, -0.089111698150635, -0.857488595467851, 0.495771806048301, 0.137563167200298, 132.347512270453052, -0.424974472878994, -0.531778668907205, -0.732535422144555, -723.841595815207256, -0.290017251286527, -0.686601604733696, 0.666684505844647, 1003.167726334126428, 0.000000000000000, 0.000000000000000, 0.000000000000000, 1.000000000000000
150, 1.755588758498250, -0.461949025974293, 0.000062737387054, 0.000018335883685, -0.000074014526571, 0.000188032501333, -0.000050453541627, -0.018819496154785, -60.513417760848995, -0.482005262374878, 26.215804023742677, -0.323537778854370, -5.063179838180542, -0.103963647842407, -0.841946817695750, 0.532963534276815, 0.084115559221617, 80.644636479306186, -0.510789578174088, -0.737079195947298, -0.442502277655632, -436.867754874074592, -0.173837749067160, -0.415528735507968, 0.892813702272995, 1225.118050129213088, 0.000000000000000, 0.000000000000000, 0.000000000000000, 1.000000000000000
151, 1.755588908323858, -0.461949085915444, 0.000062827326052, 0.000018515598056, -0.000074158428967, 0.000187942616877, -0.000050633310539, -0.004032749176025, -60.475106643676760, -0.483325824737549, 26.217564773559570, -0.306370468139648, -5.071189878463745, -0.109136798858643, -0.841870983438887, 0.533073099749213, 0.084180268278299, 80.770918193498957, -0.510913303744283, -0.736997888054840, -0.442494868964384, -436.859607049454951, -0.173841431484970, -0.415532409477853, 0.892811275339188, 1225.119148702240864, 0.000000000000000, 0.000000000000000, 0.000000000000000, 1.000000000000000
152, 1.755600532980244, -0.092358676189579, 0.000079545289523, -0.000097192040862, -0.000073870798707, -0.000121220424979, -0.000050453541627, -0.092753231048584, -11.823348459243775, -0.138659048080444, 5.092088470458984, -0.070429992675781, -0.948856021881104, -0.103296144485474, -0.834492867728308, 0.550633104695663, 0.020611591976341, 18.024292027457403, -0.550030443608785, -0.830173781455384, -0.090983535255518, -89.306775325488587, -0.032987343241119, -0.087262114329667, 0.995639070440995, 1326.078287450469816, 0.000000000000000, 0.000000000000000, 0.000000000000000, 1.000000000000000
153, 1.755603559053915, -0.092364158923252, 0.000080384192935, -0.000095274578514, -0.000073870798707, -0.000121729788412, -0.000050453596168, -0.105523603439331, -11.784365217208862, -0.111367425918579, 5.053792161941528, -0.050621557235718, -0.962206089019775, -0.093951097488403, -0.834608060694237, 0.550471171503250, 0.020270036212179, 17.923133343435257, -0.549839699999234, -0.830300462379286, -0.090980473056015, -89.278431951695254, -0.033251907147647, -0.087078306808203, 0.995646362497479, 1326.048462332077861, 0.000000000000000, 0.000000000000000, 0.000000000000000, 1.000000000000000
154, 1.940385626169084, -1.386021448423175, 0.000084608653301, -0.000012523500950, -0.000074925326640, -0.000169576789887, -0.000050753192842, -0.556519386291504, -133.701094057083139, -0.989981584548950, 57.903138103485105, -0.696816740036011, -11.043342412948608, -0.058239667892456, -0.833374052416678, 0.423210945742679, 0.355499907401101, 348.337913144572326, -0.394685264628108, -0.005403852027659, -0.918800489915359, -911.105235380455724, -0.386925355390474, -0.906015062671063, 0.171538554176912, 514.615917721272126, 0.000000000000000, 0.000000000000000, 0.000000000000000, 1.000000000000000
155, 1.940388472419300, -1.386019351137373, 0.000084638596606, -0.000012823097624, -0.000075117051058, -0.000169516848736, -0.000050693251691, -0.582060131072998, -133.637242195129403, -0.997464771270752, 57.871444606781004, -0.676127929687500, -11.035499248504639, -0.058740295410156, -0.833305748940364, 0.423233852334842, 0.355632724901335, 348.394929931472518, -0.394809266946528, -0.005340131862514, -0.918747585425309, -911.115844095521084, -0.386945954257290, -0.906004740180481, 0.171546609568406, 514.586238426969885, 0.000000000000000, 0.000000000000000, 0.000000000000000, 1.000000000000000
156, 1.940404141767140, -1.016399070755893, 0.000094166021733, 0.000049404925997, -0.000074733602222, 0.000043352942281, -0.000050932961755, -0.690272233963013, -115.964391056060791, -0.849561786651611, 50.168164157867430, -0.608339061737061, -9.596028259277343, -0.078932271957397, -0.785513413839955, 0.536296622914225, 0.308795415976821, 302.615579165207009, -0.520770623139382, -0.303286176161799, -0.798007176298668, -790.052816106087676, -0.334315172782390, -0.787656922523983, 0.517522886109908, 855.669100199877562, 0.000000000000000, 0.000000000000000, 0.000000000000000, 1.000000000000000
157, 1.940394464570947, -1.016403444987325, 0.000092907693885, 0.000070017809855, -0.000075452677873, 0.000040027271936, -0.000050813133994, -0.387816045761108, -115.908604692459107, -0.872011346817017, 50.112700538635252, -0.620664310455322, -9.527942916870117, -0.083938547134399, -0.785708349610854, 0.536039418485421, 0.308746062617160, 302.551227388007760, -0.520631072265529, -0.303480003203529, -0.798024544890213, -790.056060543717308, -0.334074356907910, -0.787757341752775, 0.517525549679597, 855.689520523990723, 0.000000000000000, 0.000000000000000, 0.000000000000000, 1.000000000000000
158, 1.940398748917924, -0.646816360931805, 0.000098510309861, 0.000036402114001, -0.000074206338255, 0.000191567829354, -0.000050932961755, -0.075277984619141, -82.163903837203975, -0.615382061004639, 35.566265926361083, -0.434905204772949, -6.874450197219849, -0.082770416259766, -0.747604073888821, 0.626368006881968, 0.220796894587649, 215.606877227196549, -0.620883959358156, -0.541128933152159, -0.567170685699946, -560.995084856803373, -0.235777983952230, -0.561108365345160, 0.793452043051818, 1127.472082717002650, 0.000000000000000, 0.000000000000000, 0.000000000000000, 1.000000000000000
159, 1.940396052493316, -0.646835955088796, 0.000097791288751, 0.000056445693274, -0.000074541877803, 0.000172632806862, -0.000050813133994, -0.039655366897583, -81.724334177017212, -0.627267122268677, 35.281464643478394, -0.436665954589844, -6.738613264083861, -0.084439174652100, -0.747594115206174, 0.626350395550982, 0.220880557999628, 215.690272863848605, -0.620921772211170, -0.541112830641794, -0.567144652896389, -560.972784273512957, -0.235709973703360, -0.561143552496109, 0.793447365481043, 1127.472856357886258, 0.000000000000000, 0.000000000000000, 0.000000000000000, 1.000000000000000
160, 1.940395543129882, -0.277239942746955, 0.000093806483907, 0.000028073075571, -0.000074014526571, -0.000196571251981, -0.000050932961755, 0.030245618820190, -36.955441324234009, -0.306810655593872, 15.996852273941041, -0.209969415664673, -3.066009794235229, -0.113976198196411, -0.724083816732702, 0.682124779961868, 0.102021619805690, 98.943917461892326, -0.681532882315793, -0.684913634590919, -0.257694088938384, -254.584095863139027, -0.105903525286601, -0.256123208072659, 0.960825346053298, 1291.918611716753048, 0.000000000000000, 0.000000000000000, 0.000000000000000, 1.000000000000000
161, 1.940395603016492, -0.277239912803650, 0.000093776595144, 0.000028043077724, -0.000073535171892, -0.000196751020894, -0.000051082787363, 0.030245618820190, -36.989719692230224, -0.287002220153809, 15.983206462860107, -0.204687166213989, -3.062004774093628, -0.106633661270142, -0.724150107800063, 0.682071554103978, 0.101906900921094, 98.880538837358174, -0.681447306706683, -0.684977265781495, -0.257751262935247, -254.620157935468825, -0.106000894125310, -0.256094788007666, 0.960822184381659, 1291.909345375977182, 0.000000000000000, 0.000000000000000, 0.000000000000000, 1.000000000000000
162, 2.125192261029650, -1.570844321772541, 0.000087784498038, -0.000082091943065, -0.000074973235928, 0.000076369499328, -0.000051052844058, -0.407979791641235, -136.012531459808372, -1.011110582351685, 58.842498130798333, -0.713543863296509, -11.312012514114379, -0.055903406143188, -0.785650054592633, 0.330161792758812, 0.523208545726157, 518.057758323212624, -0.476046038971267, 0.217521704039581, -0.852094171469025, -844.913543373059383, -0.395138153685973, -0.918519188081558, -0.013723724991295, 331.871400023824208, 0.000000000000000, 0.000000000000000, 0.000000000000000, 1.000000000000000
163, 2.125191122529563, -1.570844172001475, 0.000087814386801, -0.000082002058608, -0.000075021232482, 0.000080204424022, -0.000051052844058, -0.416717414855957, -136.025301832199091, -1.016833019256592, 58.835455131530765, -0.719706487655640, -11.312846893310546, -0.057071537017822, -0.785593971285056, 0.330253876009888, 0.523234641113353, 517.988720445790591, -0.476073721953788, 0.217519685371458, -0.852079220343372, -844.973768760768166, -0.395216299696307, -0.918486561609013, -0.013656961521947, 331.840789329074994, 0.000000000000000, 0.000000000000000, 0.000000000000000, 1.000000000000000
164, 2.125199481456757, -1.201147372349601, 0.000094375733951, -0.000062977097119, -0.000074973235928, 0.000111003922048, -0.000051412272800, -0.217768455505371, -127.219121881484995, -0.908546905517578, 55.051163587570187, -0.668644742965698, -10.549056177139281, -0.105632406234741, -0.712251689520806, 0.502594392506581, 0.489996334063530, 485.042838573509243, -0.597503831534274, -0.067784384351481, -0.798995900202218, -789.990703742907840, -0.368356759238403, -0.861860866879934, 0.348581617507793, 690.639247214528950, 0.000000000000000, 0.000000000000000, 0.000000000000000, 1.000000000000000
165, 2.125199331685691, -1.201147372349601, 0.000094285849494, -0.000062707443749, -0.000074925326640, 0.000111063808658, -0.000051442270647, -0.254735322952271, -127.302465364456182, -0.914709529876709, 55.080656147003168, -0.674807367324829, -10.554729955673217, -0.108469295501709, -0.712049725250948, 0.502677672303152, 0.490204392613872, 485.109534907636942, -0.597702725525470, -0.067615226075576, -0.798861460518764, -789.992732964065340, -0.368424538636441, -0.861825585005826, 0.348597217946288, 690.632107108659852, 0.000000000000000, 0.000000000000000, 0.000000000000000, 1.000000000000000
166, 2.125201039435821, -0.831617542892920, 0.000095154696212, 0.000026515096508, -0.000074925326640, 0.000192706329440, -0.000051412272800, -0.020163745880127, -100.811336027145387, -0.740835485458374, 43.667475833892823, -0.530425882339478, -8.427063005447387, -0.108636171340942, -0.646773661077490, 0.653855714450100, 0.392627732104303, 385.807480057340001, -0.705531259262594, -0.317412665952822, -0.633620423989047, -627.837623900507310, -0.289671319843297, -0.686820139609833, 0.666609797622696, 1002.643211895891000, 0.000000000000000, 0.000000000000000, 0.000000000000000, 1.000000000000000
167, 2.125200889610213, -0.831617662666140, 0.000095214637363, 0.000026485153203, -0.000074829420797, 0.000192526615069, -0.000051412272800, -0.018147371292114, -100.807975402832028, -0.738194360733032, 43.678920707702638, -0.533947381973267, -8.428064260482788, -0.106299909591675, -0.646713841297000, 0.653951712942021, 0.392566382431144, 385.791882029578460, -0.705544839489914, -0.317370933296804, -0.633626206976532, -627.826083665899432, -0.289771784244137, -0.686748023541759, 0.666640431730223, 1002.649074073329416, 0.000000000000000, 0.000000000000000, 0.000000000000000, 1.000000000000000
